; generated by PrusaSlicer 2.4.1+win64 on 2022-04-13 at 05:12:20 UTC

; 

; external perimeters extrusion width = 0.45mm
; perimeters extrusion width = 0.45mm
; infill extrusion width = 0.45mm
; solid infill extrusion width = 0.45mm
; top infill extrusion width = 0.40mm
; first layer extrusion width = 0.42mm

; external perimeters extrusion width = 0.45mm
; perimeters extrusion width = 0.45mm
; infill extrusion width = 0.45mm
; solid infill extrusion width = 0.45mm
; top infill extrusion width = 0.40mm
; first layer extrusion width = 0.42mm

; external perimeters extrusion width = 0.45mm
; perimeters extrusion width = 0.45mm
; infill extrusion width = 0.45mm
; solid infill extrusion width = 0.45mm
; top infill extrusion width = 0.40mm
; first layer extrusion width = 0.42mm

; external perimeters extrusion width = 0.45mm
; perimeters extrusion width = 0.45mm
; infill extrusion width = 0.45mm
; solid infill extrusion width = 0.45mm
; top infill extrusion width = 0.40mm
; first layer extrusion width = 0.42mm

M107
;TYPE:Custom
M104 S200 ; set extruder temp
M140 S60 ; set bed temp
M190 S60 ; wait for bed temp
M109 S200 ; wait for extruder temp
G28 ; home all axes
G1 Z5 F3000 ; lift nozzle
G1 X5 Y10 F1500 ; move to prime
G1 Z0.2 F3000 ; get ready to prime
G92 E0 ; reset extrusion distance
G1 Y200 E15 F600 ; prime nozzle
G1 Y100 F5000 ; quick wipe
G92 E0
G21 ; set units to millimeters
G90 ; use absolute coordinates
M83 ; use relative distances for extrusion
T0
; Filament gcode
G1 Z.3 F4800
M107
;LAYER_CHANGE
;Z:0.3
;HEIGHT:0.3
G1 Z.3 F4800
G92 E0
G1 E-12 F1800
G1 Z.8 F4800
G1 X132.106 Y132.607
G1 Z.3
G1 E12 F1800
;TYPE:Skirt/Brim
;WIDTH:0.42
;HEIGHT:0.3
G1 F1200
G1 X133.127 Y131.729 E.05974
G1 X133.844 Y131.415 E.03472
G1 X134.621 Y131.266 E.03508
G1 X175.423 Y131.269 E1.80976
G1 X176.175 Y131.421 E.03402
G1 X176.876 Y131.73 E.03398
G1 X177.894 Y132.607 E.05961
G1 X178.476 Y133.554 E.04929
G1 X178.734 Y134.612 E.0483
G1 X178.734 Y175.388 E1.80863
G1 X178.476 Y176.446 E.0483
G1 X177.894 Y177.393 E.0493
G1 X176.873 Y178.271 E.05974
G1 X176.156 Y178.585 E.03472
G1 X175.379 Y178.734 E.03507
G1 X134.612 Y178.734 E1.80823
G1 X133.554 Y178.476 E.0483
G1 X132.607 Y177.894 E.0493
G1 X131.729 Y176.873 E.05974
G1 X131.415 Y176.156 E.03472
G1 X131.266 Y175.379 E.03507
G1 X131.266 Y134.612 E1.80823
G1 X131.524 Y133.554 E.0483
G1 X132.075 Y132.658 E.04664
G1 X132.361 Y132.856 F4800
G1 F1200
G1 X133.295 Y132.043 E.05491
G1 X133.968 Y131.749 E.03261
G1 X134.638 Y131.622 E.03021
G1 X175.404 Y131.625 E1.8082
G1 X176.083 Y131.765 E.03074
G1 X176.706 Y132.044 E.03025
G1 X177.639 Y132.856 E.05489
G1 X178.157 Y133.713 E.04444
G1 X178.378 Y134.633 E.04193
G1 X178.378 Y175.367 E1.80679
G1 X178.157 Y176.287 E.04193
G1 X177.639 Y177.144 E.04444
G1 X176.705 Y177.957 E.05491
G1 X176.032 Y178.251 E.03261
G1 X175.363 Y178.378 E.0302
G1 X134.633 Y178.378 E1.80658
G1 X133.713 Y178.157 E.04193
G1 X132.856 Y177.639 E.04444
G1 X132.043 Y176.705 E.05491
G1 X131.749 Y176.032 E.03261
G1 X131.622 Y175.363 E.0302
G1 X131.622 Y134.633 E1.80658
G1 X131.843 Y133.713 E.04193
G1 X132.33 Y132.907 E.04178
G1 X132.618 Y133.103 F4800
G1 F1200
G1 X133.465 Y132.357 E.05008
G1 X134.057 Y132.094 E.02873
G1 X134.655 Y131.977 E.02702
G1 X175.386 Y131.981 E1.80663
G1 X175.956 Y132.098 E.02578
G1 X176.535 Y132.357 E.02817
G1 X177.382 Y133.103 E.05006
G1 X177.837 Y133.871 E.03958
G1 X178.023 Y134.653 E.03565
G1 X178.023 Y175.347 E1.80498
G1 X177.837 Y176.129 E.03565
G1 X177.382 Y176.897 E.03958
G1 X176.535 Y177.643 E.05008
G1 X175.943 Y177.906 E.02873
G1 X175.345 Y178.023 E.02702
G1 X134.653 Y178.023 E1.80489
G1 X133.871 Y177.837 E.03565
G1 X133.103 Y177.382 E.03958
G1 X132.357 Y176.535 E.05008
G1 X132.094 Y175.943 E.02873
G1 X131.977 Y175.345 E.02702
G1 X131.977 Y134.653 E1.80489
G1 X132.163 Y133.871 E.03565
G1 X132.587 Y133.155 E.03691
G1 X132.877 Y133.349 F4800
G1 F1200
G1 X133.637 Y132.669 E.04524
G1 X134.148 Y132.438 E.02484
G1 X134.673 Y132.333 E.02377
G1 X175.367 Y132.336 E1.80498
G1 X175.862 Y132.441 E.02243
G1 X176.363 Y132.669 E.0244
G1 X177.123 Y133.349 E.04524
G1 X177.516 Y134.025 E.03471
G1 X177.667 Y134.673 E.02949
G1 X177.667 Y175.327 E1.80321
G1 X177.516 Y175.975 E.02949
G1 X177.123 Y176.651 E.03471
G1 X176.363 Y177.331 E.04524
G1 X175.852 Y177.562 E.02484
G1 X175.327 Y177.667 E.02376
G1 X134.673 Y177.667 E1.8032
G1 X134.025 Y177.516 E.02949
G1 X133.349 Y177.123 E.03471
G1 X132.669 Y176.363 E.04524
G1 X132.438 Y175.852 E.02484
G1 X132.333 Y175.327 E.02376
G1 X132.333 Y134.673 E1.8032
G1 X132.484 Y134.025 E.02949
G1 X132.847 Y133.401 E.03205
G1 X133.138 Y133.592 F4800
G1 F1200
G1 X133.812 Y132.98 E.04039
G1 X134.241 Y132.782 E.02094
G1 X134.692 Y132.688 E.02042
G1 X175.347 Y132.692 E1.80326
G1 X175.765 Y132.784 E.01899
G1 X176.188 Y132.98 E.02065
G1 X176.862 Y133.592 E.04039
G1 X177.194 Y134.177 E.02983
G1 X177.312 Y134.693 E.02346
G1 X177.312 Y175.307 E1.80147
G1 X177.194 Y175.823 E.02346
G1 X176.862 Y176.408 E.02983
G1 X176.188 Y177.02 E.04039
G1 X175.759 Y177.218 E.02094
G1 X175.308 Y177.312 E.02042
G1 X134.693 Y177.312 E1.8015
G1 X134.177 Y177.194 E.02346
G1 X133.592 Y176.862 E.02983
G1 X132.98 Y176.188 E.04039
G1 X132.782 Y175.759 E.02094
G1 X132.688 Y175.308 E.02042
G1 X132.688 Y134.693 E1.8015
G1 X132.806 Y134.177 E.02346
G1 X133.108 Y133.644 E.02717
G1 X133.402 Y133.832 F4800
G1 F1200
G1 X133.99 Y133.289 E.03552
G1 X134.337 Y133.125 E.01703
G1 X134.711 Y133.044 E.01698
G1 X175.326 Y133.048 E1.80146
G1 X175.665 Y133.126 E.01544
G1 X176.01 Y133.289 E.01692
G1 X176.598 Y133.832 E.03552
G1 X176.869 Y134.325 E.02494
G1 X176.956 Y134.712 E.01758
G1 X176.956 Y175.288 E1.79977
G1 X176.869 Y175.675 E.01758
G1 X176.598 Y176.168 E.02494
G1 X176.01 Y176.711 E.03552
G1 X175.663 Y176.875 E.01703
G1 X175.289 Y176.956 E.01698
G1 X134.712 Y176.956 E1.79979
G1 X134.325 Y176.869 E.01758
G1 X133.832 Y176.598 E.02494
G1 X133.289 Y176.01 E.03552
G1 X133.125 Y175.663 E.01703
G1 X133.044 Y175.289 E.01698
G1 X133.044 Y134.712 E1.79979
G1 X133.131 Y134.325 E.01758
G1 X133.373 Y133.885 E.02228
G1 X133.668 Y134.069 F4800
G1 F1200
G1 X134.168 Y133.598 E.03047
G1 X134.47 Y133.455 E.01483
G1 X134.73 Y133.4 E.01177
G1 X175.306 Y133.403 E1.79973
G1 X175.53 Y133.455 E.01023
G1 X175.832 Y133.598 E.0148
G1 X176.332 Y134.069 E.03047
G1 X176.543 Y134.468 E.02003
G1 X176.6 Y134.73 E.0119
G1 X176.6 Y175.27 E1.79813
G1 X176.543 Y175.532 E.0119
G1 X176.332 Y175.931 E.02003
G1 X175.832 Y176.402 E.03047
G1 X175.53 Y176.545 E.01483
G1 X175.27 Y176.6 E.01177
G1 X134.73 Y176.6 E1.79814
G1 X134.468 Y176.543 E.0119
G1 X134.069 Y176.332 E.02003
G1 X133.598 Y175.832 E.03047
G1 X133.455 Y175.53 E.01483
G1 X133.4 Y175.27 E.01177
G1 X133.4 Y134.73 E1.79814
G1 X133.457 Y134.468 E.0119
G1 X133.64 Y134.122 E.01737
G1 X133.939 Y134.302 F4800
G1 F1200
G1 X134.347 Y133.906 E.02522
G1 X134.603 Y133.786 E.01254
G1 X134.748 Y133.755 E.00657
G1 X175.285 Y133.759 E1.798
G1 X175.395 Y133.785 E.00503
G1 X175.653 Y133.906 E.01264
G1 X176.061 Y134.302 E.02522
G1 X176.215 Y134.605 E.01509
G1 X176.245 Y134.748 E.00646
G1 X176.245 Y175.252 E1.79656
G1 X176.215 Y175.395 E.00646
G1 X176.061 Y175.698 E.01509
G1 X175.653 Y176.094 E.02522
G1 X175.397 Y176.214 E.01254
G1 X175.252 Y176.245 E.00657
G1 X134.748 Y176.245 E1.79656
G1 X134.605 Y176.215 E.00646
G1 X134.302 Y176.061 E.01509
G1 X133.906 Y175.653 E.02522
G1 X133.786 Y175.397 E.01254
G1 X133.755 Y175.252 E.00657
G1 X133.755 Y134.748 E1.79656
G1 X133.785 Y134.605 E.00646
G1 X133.912 Y134.355 E.01243
G1 X134.214 Y134.528 F4800
G1 F1200
G1 X134.528 Y134.214 E.01971
G1 X134.764 Y134.111 E.01143
G1 X175.236 Y134.111 E1.79509
G1 X175.472 Y134.214 E.01143
G1 X175.786 Y134.528 E.01971
G1 X175.889 Y134.764 E.01143
G1 X175.889 Y175.236 E1.79509
G1 X175.786 Y175.472 E.01143
G1 X175.472 Y175.786 E.01971
G1 X175.236 Y175.889 E.01143
G1 X134.764 Y175.889 E1.79509
G1 X134.528 Y175.786 E.01143
G1 X134.214 Y175.472 E.01971
G1 X134.111 Y175.236 E.01143
G1 X134.111 Y134.764 E1.79509
G1 X134.189 Y134.583 E.00877
G1 X134.494 Y134.752 F4800
G1 F1200
G1 X134.752 Y134.494 E.0162
G1 X134.817 Y134.467 E.00314
G1 X175.183 Y134.467 E1.7904
G1 X175.248 Y134.494 E.00314
G1 X175.506 Y134.752 E.0162
G1 X175.533 Y134.817 E.00314
G1 X175.533 Y175.183 E1.7904
G1 X175.506 Y175.248 E.00314
G1 X175.248 Y175.506 E.0162
G1 X175.183 Y175.533 E.00314
G1 X134.817 Y175.533 E1.7904
G1 X134.752 Y175.506 E.00314
G1 X134.494 Y175.248 E.0162
G1 X134.467 Y175.183 E.00314
G1 X134.471 Y134.807 E1.79084
G1 X134.822 Y134.926 F4800
G1 F1200
G1 X134.926 Y134.822 E.00653
G1 X175.074 Y134.822 E1.78073
G1 X175.178 Y134.926 E.00653
G1 X175.178 Y175.074 E1.78073
G1 X175.074 Y175.178 E.00653
G1 X134.926 Y175.178 E1.78073
G1 X134.822 Y175.074 E.00653
G1 X134.822 Y134.986 E1.77806
G1 E-6 F1800
;WIPE_START
G1 F3840
G1 X134.926 Y134.822 E-.08657
G1 X147.532 Y134.822 E-5.61343
;WIPE_END
G1 E-.3 F1800
G1 Z.8 F4800
G1 X164.73 Y154.79
G1 Z.3
G1 E12 F1800
;TYPE:External perimeter
G1 F1200
G1 X164.79 Y156 E.05373
G1 X164.743 Y156.959 E.04261
G1 X164.602 Y157.91 E.04262
G1 X164.368 Y158.842 E.04262
G1 X164.045 Y159.747 E.0426
G1 X163.634 Y160.615 E.04262
G1 X163.14 Y161.439 E.04261
G1 X162.568 Y162.211 E.04261
G1 X161.922 Y162.922 E.04261
G1 X161.211 Y163.568 E.04261
G1 X160.439 Y164.14 E.04261
G1 X159.615 Y164.634 E.04261
G1 X158.747 Y165.045 E.04262
G1 X157.842 Y165.368 E.0426
G1 X156.91 Y165.602 E.04262
G1 X155.959 Y165.743 E.04262
G1 X155 Y165.79 E.04261
G1 X154.041 Y165.743 E.04261
G1 X153.09 Y165.602 E.04262
G1 X152.158 Y165.368 E.04262
G1 X151.253 Y165.045 E.04261
G1 X150.385 Y164.634 E.04261
G1 X149.79 Y164.277 E.03076
G1 X149.79 Y169.79 E.24451
G1 X140.21 Y169.79 E.42492
G1 X140.21 Y160.21 E.42492
G1 X146.175 Y160.21 E.26456
G1 X145.955 Y159.747 E.02274
G1 X145.632 Y158.842 E.0426
G1 X145.398 Y157.91 E.04262
G1 X145.257 Y156.959 E.04262
G1 X145.21 Y156 E.04261
G1 X145.257 Y155.041 E.04261
G1 X145.398 Y154.09 E.04262
G1 X145.632 Y153.158 E.04262
G1 X145.955 Y152.253 E.04261
G1 X146.366 Y151.385 E.04261
G1 X146.86 Y150.561 E.04261
G1 X147.432 Y149.789 E.04261
G1 X148.078 Y149.078 E.04261
G1 X148.789 Y148.432 E.04261
G1 X149.561 Y147.86 E.04261
G1 X150.385 Y147.366 E.04261
G1 X151.253 Y146.955 E.04262
G1 X152.158 Y146.632 E.0426
G1 X153.09 Y146.398 E.04262
G1 X154.041 Y146.257 E.04262
G1 X155.21 Y146.2 E.05193
G1 X155.21 Y135.21 E.48746
G1 X174.79 Y135.21 E.86847
G1 X174.79 Y154.79 E.86847
G1 X164.79 Y154.79 E.44353
G1 X164.362 Y154.945 F4800
G1 X164.357 Y154.434
;TYPE:Perimeter
G1 F1200
G1 X164.434 Y156 E.06953
G1 X164.388 Y156.925 E.04106
G1 X164.253 Y157.84 E.04107
G1 X164.027 Y158.739 E.04108
G1 X163.716 Y159.61 E.04105
G1 X163.32 Y160.447 E.04107
G1 X162.844 Y161.241 E.04106
G1 X162.292 Y161.985 E.04106
G1 X161.671 Y162.671 E.04106
G1 X160.985 Y163.292 E.04106
G1 X160.241 Y163.844 E.04106
G1 X159.447 Y164.32 E.04106
G1 X158.61 Y164.716 E.04107
G1 X157.739 Y165.027 E.04106
G1 X156.84 Y165.253 E.04108
G1 X155.925 Y165.388 E.04107
G1 X155 Y165.434 E.04106
G1 X154.075 Y165.388 E.04106
G1 X153.16 Y165.253 E.04107
G1 X152.261 Y165.027 E.04108
G1 X151.39 Y164.716 E.04106
G1 X150.553 Y164.32 E.04107
G1 X149.434 Y163.65 E.05782
G1 X149.434 Y169.434 E.25656
G1 X140.566 Y169.434 E.39337
G1 X140.566 Y160.566 E.39337
G1 X146.737 Y160.566 E.27371
G1 X146.284 Y159.61 E.04688
G1 X145.973 Y158.739 E.04106
G1 X145.747 Y157.84 E.04108
G1 X145.612 Y156.925 E.04107
G1 X145.566 Y156 E.04106
G1 X145.612 Y155.075 E.04106
G1 X145.747 Y154.16 E.04107
G1 X145.973 Y153.261 E.04108
G1 X146.284 Y152.39 E.04106
G1 X146.68 Y151.553 E.04106
G1 X147.156 Y150.759 E.04106
G1 X147.708 Y150.015 E.04106
G1 X148.329 Y149.329 E.04106
G1 X149.015 Y148.708 E.04106
G1 X149.759 Y148.156 E.04106
G1 X150.553 Y147.68 E.04106
G1 X151.39 Y147.284 E.04107
G1 X152.261 Y146.973 E.04105
G1 X153.16 Y146.747 E.04108
G1 X154.075 Y146.612 E.04107
G1 X155.566 Y146.539 E.06618
G1 X155.566 Y135.566 E.4867
G1 X174.434 Y135.566 E.83692
G1 X174.434 Y154.434 E.83692
G1 X164.417 Y154.434 E.44432
G1 X163.984 Y154.079 F4800
G1 F1200
G1 X164.078 Y156 E.08532
G1 X164.034 Y156.89 E.03951
G1 X163.903 Y157.771 E.03951
G1 X163.686 Y158.635 E.03953
G1 X163.387 Y159.474 E.03951
G1 X163.006 Y160.279 E.03952
G1 X162.548 Y161.044 E.03951
G1 X162.017 Y161.759 E.0395
G1 X161.419 Y162.419 E.03952
G1 X160.759 Y163.017 E.03952
G1 X160.044 Y163.548 E.0395
G1 X159.279 Y164.006 E.03951
G1 X158.474 Y164.387 E.03952
G1 X157.635 Y164.686 E.03951
G1 X156.771 Y164.903 E.03953
G1 X155.89 Y165.034 E.03951
G1 X155 Y165.078 E.03951
G1 X154.11 Y165.034 E.03951
G1 X153.229 Y164.903 E.03951
G1 X152.365 Y164.686 E.03953
G1 X151.526 Y164.387 E.03951
G1 X150.721 Y164.006 E.03952
G1 X149.079 Y163.023 E.08488
G1 X149.079 Y169.079 E.26861
G1 X140.921 Y169.079 E.36183
G1 X140.921 Y160.921 E.36183
G1 X147.298 Y160.921 E.28286
G1 X146.613 Y159.474 E.07102
G1 X146.314 Y158.635 E.03951
G1 X146.097 Y157.771 E.03953
G1 X145.966 Y156.89 E.03951
G1 X145.922 Y156 E.03951
G1 X145.966 Y155.11 E.03951
G1 X146.097 Y154.229 E.03951
G1 X146.314 Y153.365 E.03953
G1 X146.613 Y152.526 E.03951
G1 X146.994 Y151.721 E.03952
G1 X147.452 Y150.956 E.03951
G1 X147.983 Y150.241 E.0395
G1 X148.581 Y149.581 E.03952
G1 X149.241 Y148.983 E.03952
G1 X149.956 Y148.452 E.0395
G1 X150.721 Y147.994 E.03951
G1 X151.526 Y147.613 E.03952
G1 X152.365 Y147.314 E.03951
G1 X153.229 Y147.097 E.03953
G1 X154.11 Y146.966 E.03951
G1 X155.921 Y146.877 E.08042
G1 X155.921 Y135.921 E.48595
G1 X174.079 Y135.921 E.80537
G1 X174.079 Y154.079 E.80537
G1 X164.044 Y154.079 E.44511
G1 E-6 F1800
;WIPE_START
G1 F3840
G1 X164.078 Y156 E-.85569
G1 X164.034 Y156.89 E-.39666
G1 X163.903 Y157.771 E-.39668
G1 X163.686 Y158.635 E-.3969
G1 X163.387 Y159.474 E-.39663
G1 X163.006 Y160.279 E-.39673
G1 X162.548 Y161.044 E-.39668
G1 X162.017 Y161.759 E-.39659
G1 X161.419 Y162.419 E-.39675
G1 X160.759 Y163.017 E-.39677
G1 X160.044 Y163.548 E-.39658
G1 X159.279 Y164.006 E-.39668
G1 X158.474 Y164.387 E-.39673
G1 X158.297 Y164.45 E-.08392
;WIPE_END
G1 E-.3 F1800
G1 Z.8 F4800
G1 X162.881 Y150.212
G1 Z.3
G1 E12 F1800
;TYPE:External perimeter
G1 F1200
G1 X162.568 Y149.789 E.02334
G1 X161.922 Y149.078 E.04261
G1 X161.211 Y148.432 E.04261
G1 X160.439 Y147.86 E.04261
G1 X159.787 Y147.469 E.03371
G1 X159.787 Y139.787 E.34075
G1 X170.212 Y139.787 E.4624
G1 X170.212 Y150.212 E.4624
G1 X162.941 Y150.212 E.32249
G1 X162.587 Y150.483 F4800
G1 X162.702 Y150.568
;TYPE:Perimeter
G1 F1200
G1 X162.292 Y150.015 E.03051
G1 X161.671 Y149.329 E.04106
G1 X160.985 Y148.708 E.04106
G1 X160.241 Y148.156 E.04106
G1 X159.431 Y147.671 E.04187
G1 X159.431 Y139.431 E.36547
G1 X170.568 Y139.431 E.49395
G1 X170.568 Y150.568 E.49395
G1 X162.762 Y150.568 E.3462
G1 X162.523 Y150.923 F4800
G1 F1200
G1 X162.017 Y150.241 E.03767
G1 X161.419 Y149.581 E.03952
G1 X160.759 Y148.983 E.03952
G1 X160.044 Y148.452 E.0395
G1 X159.076 Y147.873 E.05003
G1 X159.076 Y139.076 E.39018
G1 X170.923 Y139.076 E.52549
G1 X170.923 Y150.923 E.52549
G1 X162.583 Y150.923 E.36991
G1 X160.997 Y151.993 F4800
;TYPE:External perimeter
G1 F1200
G1 X161.361 Y152.6 E.0314
G1 X161.663 Y153.24 E.03137
G1 X161.902 Y153.906 E.0314
G1 X162.074 Y154.593 E.03142
G1 X162.178 Y155.293 E.03141
G1 X162.212 Y156 E.03137
G1 X162.178 Y156.707 E.03137
G1 X162.074 Y157.407 E.03141
G1 X161.902 Y158.094 E.03142
G1 X161.663 Y158.76 E.0314
G1 X161.361 Y159.4 E.03137
G1 X160.997 Y160.007 E.0314
G1 X160.576 Y160.575 E.03138
G1 X160.101 Y161.101 E.03142
G1 X159.575 Y161.576 E.03142
G1 X159.007 Y161.997 E.03138
G1 X158.4 Y162.361 E.0314
G1 X157.76 Y162.663 E.03137
G1 X157.094 Y162.902 E.0314
G1 X156.407 Y163.074 E.03142
G1 X155.707 Y163.178 E.03141
G1 X155 Y163.212 E.03137
G1 X154.293 Y163.178 E.03137
G1 X153.593 Y163.074 E.03141
G1 X152.906 Y162.902 E.03142
G1 X152.24 Y162.663 E.0314
G1 X151.6 Y162.361 E.03137
G1 X150.993 Y161.997 E.0314
G1 X150.425 Y161.576 E.03138
G1 X149.899 Y161.101 E.03142
G1 X149.424 Y160.575 E.03142
G1 X149.003 Y160.007 E.03138
G1 X148.639 Y159.4 E.0314
G1 X148.337 Y158.76 E.03137
G1 X148.098 Y158.094 E.0314
G1 X147.926 Y157.407 E.03142
