; generated by PrusaSlicer 2.4.2-rc2+win64 on 2022-04-22 at 09:54:44 UTC

; 

; external perimeters extrusion width = 0.45mm
; perimeters extrusion width = 0.45mm
; infill extrusion width = 0.45mm
; solid infill extrusion width = 0.45mm
; top infill extrusion width = 0.40mm
; first layer extrusion width = 0.45mm

; external perimeters extrusion width = 0.45mm
; perimeters extrusion width = 0.45mm
; infill extrusion width = 0.45mm
; solid infill extrusion width = 0.45mm
; top infill extrusion width = 0.40mm
; first layer extrusion width = 0.45mm

; external perimeters extrusion width = 0.45mm
; perimeters extrusion width = 0.45mm
; infill extrusion width = 0.45mm
; solid infill extrusion width = 0.45mm
; top infill extrusion width = 0.40mm
; first layer extrusion width = 0.45mm

; external perimeters extrusion width = 0.45mm
; perimeters extrusion width = 0.45mm
; infill extrusion width = 0.45mm
; solid infill extrusion width = 0.45mm
; top infill extrusion width = 0.40mm
; first layer extrusion width = 0.45mm

M107
;TYPE:Custom
M104 S200 ; set extruder temp
M140 S60 ; set bed temp
M190 S60 ; wait for bed temp
M109 S200 ; wait for extruder temp
G28 ; home all axes
G21 ; set units to millimeters
G90 ; use absolute coordinates
M83 ; use relative distances for extrusion
G1 Z5 F3000 ; lift nozzle
G1 X5 Y10 F1500 ; move to prime start point
G1 Z0.3 F3000 ; get ready to prime
;===Pre-load filament start
M117 Preload Extruder #1
T0
G0 X5 Y50 F3000
G1 Y250 E15 F1200
G0 X5.5 F3000
G1 Y50 E15 F1200
G0 X6 F3000
G1 Y250 E15 F1200
G0 X6.5 F3000
G1 Y50 E15 F1200
G0 X7 F3000
G1 Y250 E15 F1200
G0 X7.5 F3000
G1 Y50 E15 F1200
G0 X8 F3000
G1 E-80 F2400
M400
M117 Preload Extruder #2
T1
G0 X8 Y50 F3000
G1 Y250 E15 F1200
G0 X8.5 F3000
G1 Y50 E15 F1200
G0 X9 F3000
G1 Y250 E15 F1200
G0 X9.5 F3000
G1 Y50 E15 F1200
G0 X10 F3000
G1 Y250 E15 F1200
G0 X10.5 F3000
G1 Y50 E15 F1200
G0 X11 F3000
G1 E-80 F2400
M400
M117 Preload Extruder #3
T2
G0 X11 Y50 F3000
G1 Y250 E15 F1200
G0 X11.5 F3000
G1 Y50 E15 F1200
G0 X12 F3000
G1 Y250 E15 F1200
G0 X12.5 F3000
G1 Y50 E15 F600
G0 X13 F3000
G1 Y250 E15 F1200
G0 X13.5 F3000
G1 Y50 E15 F1200
G0 X14 F3000
G1 E-80 F2400
M400
M117 Preload Extruder #3
T3
G0 X14 Y50 F3000
G1 Y250 E15 F1200
G0 X14.5 F3000
G1 Y50 E15 F1200
G0 X15 F3000
G1 Y250 E15 F1200
G0 X15.5 F3000
G1 Y50 E15 F1200
G0 X16 F3000
G1 Y250 E15 F1200
G0 X16.5 F3000
G1 Y50 E15 F1200
G0 X17 F3000
G0 Y155 F3600
;===Pre-load filament end
G21 ; set units to millimeters
G90 ; use absolute coordinates
M83 ; use relative distances for extrusion
G92 E0
G1 E-5 F1200;pull filament-1
G92 E0
G1 E-75 F2400;pull filament-2
G92 E0
T0;Change extruder
G92 E0
G1 E25 F2400; push filament-1
G92 E0
G1 E20 F1200; pushfilament-2
G92 E0
G1 E30 F1800; pushfilament-2
G92 E0
G1 E4 F600; push filament-3
G92 E0
; Filament gcode
G1 Z.3 F6000
M107
;LAYER_CHANGE
;Z:0.3
;HEIGHT:0.3
G92 E0
G1 Z.3 F6000
G92 E0
G1 E-8 F1800
G1 Z.8 F6000
G1 X132.409 Y132.41
G1 Z.3
G1 E8 F1800
;TYPE:Skirt/Brim
;WIDTH:0.45
;HEIGHT:0.3
G1 F900
G1 X132.67 Y132.149 E.01773
G1 X133.11 Y131.814 E.02659
G1 X134.535 Y131.337 E.07228
G1 X175.438 Y131.34 E1.96732
G1 X176.174 Y131.492 E.03614
G1 X176.849 Y131.794 E.03554
G1 X177.825 Y132.64 E.06213
G1 X178.381 Y133.504 E.0494
G1 X178.663 Y134.553 E.05226
G1 X178.663 Y175.448 E1.96691
G1 X178.405 Y176.442 E.0494
G1 X177.872 Y177.309 E.04893
G1 X177.33 Y177.851 E.03687
G1 X176.89 Y178.186 E.02659
G1 X175.465 Y178.663 E.07227
G1 X134.552 Y178.663 E1.96778
G1 X133.558 Y178.405 E.0494
G1 X132.691 Y177.872 E.04893
G1 X132.149 Y177.33 E.03687
G1 X131.814 Y176.89 E.02659
G1 X131.337 Y175.465 E.07227
G1 X131.337 Y134.552 E1.96778
G1 X131.595 Y133.558 E.0494
G1 X132.128 Y132.691 E.04893
G1 X132.367 Y132.452 E.01626
G1 X132.64 Y132.725 F6000
G1 F900
G1 X132.933 Y132.432 E.01996
G1 X133.317 Y132.141 E.02317
G1 X134.566 Y131.722 E.06335
G1 X175.419 Y131.726 E1.96488
G1 X176.036 Y131.853 E.03031
G1 X176.665 Y132.134 E.0331
G1 X177.549 Y132.911 E.05661
G1 X178.04 Y133.684 E.04407
G1 X178.278 Y134.578 E.04447
G1 X178.278 Y175.422 E1.96447
G1 X178.04 Y176.314 E.04442
G1 X177.584 Y177.052 E.04169
G1 X177.067 Y177.568 E.03516
G1 X176.683 Y177.859 E.02317
G1 X175.434 Y178.278 E.06335
G1 X134.578 Y178.278 E1.96504
G1 X133.686 Y178.04 E.04442
G1 X132.948 Y177.584 E.04169
G1 X132.432 Y177.067 E.03516
G1 X132.141 Y176.683 E.02317
G1 X131.722 Y175.434 E.06335
G1 X131.722 Y134.578 E1.96504
G1 X131.96 Y133.686 E.04442
G1 X132.416 Y132.948 E.04169
G1 X132.597 Y132.767 E.01231
G1 X132.87 Y133.04 F6000
G1 F900
G1 X133.196 Y132.714 E.02217
G1 X133.524 Y132.468 E.01972
G1 X134.597 Y132.108 E.05447
G1 X175.398 Y132.112 E1.96237
G1 X175.934 Y132.225 E.02638
G1 X176.478 Y132.472 E.02869
G1 X177.272 Y133.18 E.05119
G1 X177.676 Y133.815 E.03617
G1 X177.892 Y134.604 E.03937
G1 X177.892 Y175.396 E1.96192
G1 X177.676 Y176.185 E.03935
G1 X177.296 Y176.794 E.03455
G1 X176.804 Y177.286 E.03344
G1 X176.476 Y177.532 E.01972
G1 X175.403 Y177.892 E.05447
G1 X134.604 Y177.892 E1.96226
G1 X133.815 Y177.676 E.03935
G1 X133.206 Y177.296 E.03455
G1 X132.714 Y176.804 E.03344
G1 X132.468 Y176.476 E.01972
G1 X132.108 Y175.403 E.05447
G1 X132.108 Y134.604 E1.96226
G1 X132.324 Y133.815 E.03935
G1 X132.704 Y133.206 E.03455
G1 X132.827 Y133.082 E.00838
G1 X133.1 Y133.355 F6000
G1 F900
G1 X133.458 Y132.997 E.02435
G1 X133.729 Y132.796 E.01622
G1 X134.629 Y132.493 E.04566
G1 X175.376 Y132.497 E1.95982
G1 X175.83 Y132.597 E.02233
G1 X176.288 Y132.809 E.02428
G1 X176.994 Y133.448 E.04581
G1 X177.313 Y133.948 E.02851
G1 X177.507 Y134.632 E.03418
G1 X177.507 Y175.368 E1.95927
G1 X177.313 Y176.052 E.03418
G1 X177.008 Y176.537 E.02754
G1 X176.542 Y177.003 E.03172
G1 X176.271 Y177.204 E.01622
G1 X175.371 Y177.507 E.04566
G1 X134.632 Y177.507 E1.95943
G1 X133.948 Y177.313 E.03418
G1 X133.463 Y177.008 E.02754
G1 X132.997 Y176.542 E.03172
G1 X132.796 Y176.271 E.01622
G1 X132.493 Y175.371 E.04566
G1 X132.493 Y134.632 E1.95943
G1 X132.687 Y133.948 E.03418
G1 X132.992 Y133.463 E.02754
G1 X133.058 Y133.398 E.00448
G1 X133.33 Y133.67 F6000
G1 F900
G1 X133.72 Y133.281 E.02651
G1 X133.933 Y133.125 E.01268
G1 X134.66 Y132.879 E.03694
G1 X175.354 Y132.883 E1.9572
G1 X175.721 Y132.968 E.01815
G1 X176.095 Y133.144 E.0199
G1 X176.714 Y133.715 E.04047
G1 X176.951 Y134.084 E.02113
G1 X177.121 Y134.661 E.02889
G1 X177.121 Y175.339 E1.95652
G1 X176.951 Y175.916 E.0289
G1 X176.721 Y176.279 E.02067
G1 X176.28 Y176.719 E.02999
G1 X176.067 Y176.875 E.01268
G1 X175.34 Y177.121 E.03693
G1 X134.661 Y177.121 E1.95653
G1 X134.084 Y176.951 E.0289
G1 X133.721 Y176.721 E.02067
G1 X133.281 Y176.28 E.02999
G1 X133.125 Y176.067 E.01268
G1 X132.879 Y175.34 E.03693
G1 X132.879 Y134.661 E1.95653
G1 X133.049 Y134.084 E.0289
G1 X133.288 Y133.713 E.02125
G1 X133.566 Y133.98 F6000
G1 F900
G1 X133.981 Y133.565 E.02824
G1 X134.134 Y133.454 E.00908
G1 X134.692 Y133.265 E.02833
G1 X175.331 Y133.268 E1.95461
G1 X175.575 Y133.325 E.01203
G1 X175.902 Y133.48 E.0174
G1 X176.432 Y133.979 E.03503
G1 X176.591 Y134.225 E.01409
G1 X176.735 Y134.691 E.02345
G1 X176.735 Y175.309 E1.95361
G1 X176.591 Y175.775 E.02346
G1 X176.434 Y176.02 E.014
G1 X176.019 Y176.435 E.02824
G1 X175.866 Y176.546 E.00908
G1 X175.308 Y176.735 E.02833
G1 X134.691 Y176.735 E1.95354
G1 X134.225 Y176.591 E.02346
G1 X133.98 Y176.434 E.014
G1 X133.565 Y176.019 E.02824
G1 X133.454 Y175.866 E.00908
G1 X133.265 Y175.308 E.02833
G1 X133.265 Y134.691 E1.95354
G1 X133.409 Y134.225 E.02346
G1 X133.534 Y134.03 E.01111
G1 X133.852 Y134.239 F6000
G1 F900
G1 X134.241 Y133.85 E.02646
G1 X134.333 Y133.785 E.00541
G1 X134.725 Y133.65 E.01992
G1 X175.309 Y133.654 E1.95195
G1 X175.428 Y133.682 E.00591
G1 X175.708 Y133.814 E.01486
G1 X176.149 Y134.24 E.02949
G1 X176.234 Y134.371 E.00751
G1 X176.35 Y134.723 E.01782
G1 X176.35 Y175.277 E1.95049
G1 X176.234 Y175.629 E.01782
G1 X176.148 Y175.761 E.00759
G1 X175.759 Y176.15 E.02646
G1 X175.667 Y176.215 E.00541
G1 X175.275 Y176.35 E.01992
G1 X134.723 Y176.35 E1.95042
G1 X134.371 Y176.234 E.01782
G1 X134.239 Y176.148 E.00759
G1 X133.85 Y175.759 E.02646
G1 X133.785 Y175.667 E.00541
G1 X133.65 Y175.275 E.01992
G1 X133.65 Y134.723 E1.95042
G1 X133.766 Y134.371 E.01782
G1 X133.82 Y134.289 E.00471
G1 X134.136 Y134.501 F6000
G1 F900
G1 X134.499 Y134.138 E.02468
G1 X134.759 Y134.036 E.01344
G1 X175.255 Y134.036 E1.94774
G1 X175.511 Y134.148 E.01344
G1 X175.862 Y134.499 E.02387
G1 X175.964 Y134.759 E.01344
G1 X175.964 Y175.241 E1.94704
G1 X175.862 Y175.501 E.01344
G1 X175.501 Y175.862 E.02457
G1 X175.241 Y175.964 E.01344
G1 X134.759 Y175.964 E1.94704
G1 X134.499 Y175.862 E.01344
G1 X134.138 Y175.501 E.02457
G1 X134.036 Y175.241 E.01344
G1 X134.036 Y134.759 E1.94704
G1 X134.109 Y134.554 E.01048
G1 X134.451 Y134.731 F6000
G1 F900
G1 X134.731 Y134.451 E.01905
G1 X134.802 Y134.422 E.00369
G1 X175.198 Y134.422 E1.94292
G1 X175.269 Y134.451 E.00369
G1 X175.549 Y134.731 E.01905
G1 X175.578 Y134.802 E.00369
G1 X175.578 Y175.198 E1.94292
G1 X175.549 Y175.269 E.00369
G1 X175.269 Y175.549 E.01905
G1 X175.198 Y175.578 E.00369
G1 X134.802 Y175.578 E1.94292
G1 X134.731 Y175.549 E.00369
G1 X134.451 Y175.269 E.01905
G1 X134.422 Y175.198 E.00369
G1 X134.428 Y134.786 E1.94366
G1 X134.807 Y134.92 F6000
G1 F900
G1 X134.92 Y134.807 E.00768
G1 X175.08 Y134.807 E1.93155
G1 X175.193 Y134.92 E.00768
G1 X175.193 Y175.08 E1.93155
G1 X175.08 Y175.193 E.00768
G1 X134.92 Y175.193 E1.93155
G1 X134.807 Y175.08 E.00768
G1 X134.807 Y134.98 E1.92866
G1 E-2.4 F1800
;WIPE_START
G1 F3600
G1 X134.92 Y134.807 E-.07359
G1 X149.647 Y134.807 E-5.24641
;WIPE_END
G1 E-.28 F1800
G1 Z.8 F6000
G1 X164.715 Y154.775
G1 Z.3
G1 E8 F1800
;TYPE:External perimeter
G1 F900
G1 X164.775 Y156 E.05899
G1 X164.728 Y156.958 E.04613
G1 X164.587 Y157.907 E.04615
G1 X164.353 Y158.838 E.04615
G1 X164.031 Y159.741 E.04613
G1 X163.62 Y160.608 E.04614
G1 X163.128 Y161.431 E.04613
G1 X162.556 Y162.201 E.04614
G1 X161.912 Y162.912 E.04613
G1 X161.201 Y163.556 E.04613
G1 X160.431 Y164.128 E.04614
G1 X159.608 Y164.62 E.04613
G1 X158.741 Y165.031 E.04614
G1 X157.838 Y165.353 E.04613
G1 X156.907 Y165.587 E.04615
G1 X155.958 Y165.728 E.04615
G1 X155 Y165.775 E.04613
G1 X154.042 Y165.728 E.04613
G1 X153.093 Y165.587 E.04615
G1 X152.162 Y165.353 E.04615
G1 X151.259 Y165.031 E.04613
G1 X150.392 Y164.62 E.04614
G1 X149.775 Y164.251 E.0346
G1 X149.775 Y169.775 E.26569
G1 X140.225 Y169.775 E.45932
G1 X140.225 Y160.225 E.45932
G1 X146.198 Y160.225 E.2873
G1 X145.969 Y159.741 E.02577
G1 X145.647 Y158.838 E.04613
G1 X145.413 Y157.907 E.04615
G1 X145.272 Y156.958 E.04615
G1 X145.225 Y156 E.04613
G1 X145.272 Y155.042 E.04613
G1 X145.413 Y154.093 E.04615
G1 X145.647 Y153.162 E.04615
G1 X145.969 Y152.259 E.04613
G1 X146.38 Y151.392 E.04614
G1 X146.872 Y150.569 E.04613
G1 X147.444 Y149.799 E.04614
G1 X148.088 Y149.088 E.04613
G1 X148.799 Y148.444 E.04613
G1 X149.569 Y147.872 E.04614
G1 X150.392 Y147.38 E.04613
G1 X151.259 Y146.969 E.04614
G1 X152.162 Y146.647 E.04613
G1 X153.093 Y146.413 E.04615
G1 X154.042 Y146.272 E.04615
G1 X155.225 Y146.214 E.05696
G1 X155.225 Y135.225 E.52855
G1 X174.775 Y135.225 E.94029
G1 X174.775 Y154.775 E.94029
G1 X164.775 Y154.775 E.48098
G1 X164.346 Y154.93 F6000
G1 X164.31 Y154.389
;TYPE:Perimeter
G1 F900
G1 X164.389 Y156 E.07756
G1 X164.344 Y156.92 E.04431
G1 X164.208 Y157.832 E.04432
G1 X163.984 Y158.726 E.04433
G1 X163.674 Y159.593 E.04431
G1 X163.28 Y160.426 E.04432
G1 X162.807 Y161.216 E.04431
G1 X162.258 Y161.956 E.04431
G1 X161.639 Y162.639 E.04432
G1 X160.956 Y163.258 E.04432
G1 X160.216 Y163.807 E.04431
G1 X159.426 Y164.28 E.04431
G1 X158.593 Y164.674 E.04432
G1 X157.726 Y164.984 E.04431
G1 X156.832 Y165.208 E.04433
G1 X155.92 Y165.344 E.04432
G1 X155 Y165.389 E.04431
G1 X154.08 Y165.344 E.04431
G1 X153.168 Y165.208 E.04432
G1 X152.274 Y164.984 E.04433
G1 X151.407 Y164.674 E.04431
G1 X150.574 Y164.28 E.04432
G1 X149.389 Y163.571 E.06641
G1 X149.389 Y169.389 E.27986
G1 X140.611 Y169.389 E.42223
G1 X140.611 Y160.611 E.42223
G1 X146.808 Y160.611 E.29806
G1 X146.326 Y159.593 E.05415
G1 X146.016 Y158.726 E.04431
G1 X145.792 Y157.832 E.04433
G1 X145.656 Y156.92 E.04432
G1 X145.611 Y156 E.04431
G1 X145.656 Y155.08 E.04431
G1 X145.792 Y154.168 E.04432
G1 X146.016 Y153.274 E.04433
G1 X146.326 Y152.407 E.04431
G1 X146.72 Y151.574 E.04432
G1 X147.193 Y150.784 E.04431
G1 X147.742 Y150.044 E.04431
G1 X148.361 Y149.361 E.04432
G1 X149.044 Y148.742 E.04432
G1 X149.784 Y148.193 E.04431
G1 X150.574 Y147.72 E.04431
G1 X151.407 Y147.326 E.04432
G1 X152.274 Y147.016 E.0443
G1 X153.168 Y146.792 E.04433
G1 X154.08 Y146.656 E.04432
G1 X155.611 Y146.581 E.07371
G1 X155.611 Y135.611 E.52766
G1 X174.389 Y135.611 E.90319
G1 X174.389 Y154.389 E.90319
G1 X164.37 Y154.389 E.48191
G1 X163.905 Y154.004 F6000
G1 F900
G1 X164.003 Y156 E.09613
G1 X163.959 Y156.882 E.04249
G1 X163.83 Y157.756 E.04249
G1 X163.615 Y158.614 E.04252
G1 X163.317 Y159.445 E.04248
G1 X162.939 Y160.244 E.0425
G1 X162.486 Y161.002 E.04249
G1 X161.959 Y161.711 E.04248
G1 X161.366 Y162.366 E.0425
G1 X160.711 Y162.959 E.0425
G1 X160.002 Y163.486 E.04248
G1 X159.244 Y163.939 E.04249
G1 X158.445 Y164.317 E.0425
G1 X157.614 Y164.615 E.04248
G1 X156.756 Y164.83 E.04252
G1 X155.882 Y164.959 E.04249
G1 X155 Y165.003 E.04249
G1 X154.118 Y164.959 E.04249
G1 X153.244 Y164.83 E.04249
G1 X152.386 Y164.615 E.04252
G1 X151.555 Y164.317 E.04248
G1 X150.756 Y163.939 E.0425
G1 X149.004 Y162.89 E.09823
G1 X149.004 Y169.004 E.29403
G1 X140.996 Y169.004 E.38513
G1 X140.996 Y160.996 E.38513
G1 X147.417 Y160.996 E.30881
G1 X146.683 Y159.445 E.08253
G1 X146.385 Y158.614 E.04248
G1 X146.17 Y157.756 E.04252
G1 X146.041 Y156.882 E.04249
G1 X145.997 Y156 E.04249
G1 X146.041 Y155.118 E.04249
G1 X146.17 Y154.244 E.04249
G1 X146.385 Y153.387 E.04251
G1 X146.683 Y152.555 E.04249
G1 X147.061 Y151.756 E.04249
G1 X147.514 Y150.998 E.04249
G1 X148.041 Y150.289 E.04248
G1 X148.634 Y149.634 E.0425
G1 X149.289 Y149.041 E.0425
G1 X149.998 Y148.514 E.04248
G1 X150.756 Y148.061 E.04249
G1 X151.555 Y147.683 E.0425
G1 X152.386 Y147.385 E.04248
G1 X153.244 Y147.17 E.04252
G1 X154.118 Y147.041 E.04249
G1 X155.996 Y146.949 E.09046
G1 X155.996 Y135.996 E.52677
G1 X174.004 Y135.996 E.8661
G1 X174.004 Y154.004 E.8661
G1 X163.965 Y154.004 E.48284
G1 X162.874 Y150.227 F6000
;TYPE:External perimeter
G1 F900
G1 X162.556 Y149.799 E.02564
G1 X161.912 Y149.088 E.04613
G1 X161.201 Y148.444 E.04613
G1 X160.431 Y147.872 E.04614
G1 X159.772 Y147.478 E.03693
G1 X159.772 Y139.772 E.37063
G1 X170.227 Y139.772 E.50285
G1 X170.227 Y150.227 E.50285
G1 X162.934 Y150.227 E.35078
G1 X162.58 Y150.498 F6000
G1 X162.564 Y150.457
;TYPE:Perimeter
G1 F900
G1 X162.258 Y150.044 E.02473
G1 X161.639 Y149.361 E.04432
G1 X160.956 Y148.742 E.04432
G1 X160.216 Y148.193 E.04431
G1 X159.386 Y147.697 E.04652
G1 X159.386 Y139.386 E.39969
G1 X170.613 Y139.386 E.53994
G1 X170.613 Y150.613 E.53994
G1 X162.68 Y150.613 E.38155
G1 X162.6 Y150.505 E.00644
G1 X162.486 Y150.998 F6000
G1 F900
G1 X161.959 Y150.289 E.04249
G1 X161.366 Y149.634 E.0425
G1 X160.711 Y149.041 E.0425
G1 X160.002 Y148.514 E.04248
G1 X159.001 Y147.915 E.05612
G1 X159.001 Y139.001 E.42875
G1 X170.998 Y139.001 E.57704
G1 X170.998 Y150.998 E.57704
G1 X162.546 Y150.998 E.40654
G1 X161.009 Y151.985 F6000
;TYPE:External perimeter
G1 F900
G1 X161.375 Y152.593 E.03412
G1 X161.677 Y153.234 E.03409
G1 X161.917 Y153.902 E.03412
G1 X162.089 Y154.59 E.03414
G1 X162.193 Y155.292 E.03413
G1 X162.227 Y156 E.03409
G1 X162.193 Y156.708 E.03409
G1 X162.089 Y157.41 E.03413
G1 X161.917 Y158.098 E.03414
G1 X161.677 Y158.766 E.03412
G1 X161.375 Y159.407 E.03409
G1 X161.009 Y160.015 E.03412
G1 X160.587 Y160.585 E.03409
G1 X160.111 Y161.111 E.03414
G1 X159.585 Y161.587 E.03414
G1 X159.015 Y162.009 E.03409
G1 X158.407 Y162.375 E.03412
G1 X157.766 Y162.677 E.03409
G1 X157.098 Y162.917 E.03412
G1 X156.41 Y163.089 E.03414
G1 X155.708 Y163.193 E.03413
G1 X155 Y163.227 E.03409
G1 X154.292 Y163.193 E.03409
G1 X153.59 Y163.089 E.03413
G1 X152.902 Y162.917 E.03414
G1 X152.234 Y162.677 E.03412
G1 X151.593 Y162.375 E.03409
