; G-Code generated by Simplify3D(R) Version 4.1.2
; May 25, 2022 at 8:39:21 PM
; Settings Summary
;   processName,Process1
;   applyToModels,Color_1
;   profileName,Z9E4
;   profileVersion,2022-05-25 17:53:40
;   baseProfile,Default
;   printMaterial,PLA
;   printQuality,Medium
;   printExtruders,All Extruders
;   extruderName,Extruder 1,Extruder 2,Extruder 3,Extruder 4
;   extruderToolheadNumber,0,1,2,3
;   extruderDiameter,0.4,0.4,0.4,0.4
;   extruderAutoWidth,0,0,0,0
;   extruderWidth,0.48,0.4,0.4,0.4
;   extrusionMultiplier,1,1.2,1,1
;   extruderUseRetract,1,1,1,1
;   extruderRetractionDistance,12,12,12,12
;   extruderExtraRestartDistance,0.15,0.15,0.15,0.15
;   extruderRetractionZLift,0,0,0,0
;   extruderRetractionSpeed,2100,2100,2100,2100
;   extruderUseCoasting,0,0,0,0
;   extruderCoastingDistance,0.2,0.2,0.2,0.2
;   extruderUseWipe,1,1,1,1
;   extruderWipeDistance,3,3,3,3
;   primaryExtruder,0
;   layerHeight,0.2
;   topSolidLayers,3
;   bottomSolidLayers,3
;   perimeterOutlines,2
;   printPerimetersInsideOut,1
;   startPointOption,2
;   startPointOriginX,150
;   startPointOriginY,150
;   sequentialIslands,0
;   spiralVaseMode,0
;   firstLayerHeightPercentage,150
;   firstLayerWidthPercentage,100
;   firstLayerUnderspeed,0.5
;   useRaft,0
;   raftExtruder,0
;   raftTopLayers,2
;   raftBaseLayers,2
;   raftOffset,3
;   raftSeparationDistance,0.14
;   raftTopInfill,100
;   aboveRaftSpeedMultiplier,0.3
;   useSkirt,1
;   skirtExtruder,0
;   skirtLayers,1
;   skirtOutlines,5
;   skirtOffset,0
;   usePrimePillar,1
;   primePillarExtruder,999
;   primePillarWidth,20
;   primePillarLocation,7
;   primePillarSpeedMultiplier,1
;   useOozeShield,0
;   oozeShieldExtruder,999
;   oozeShieldOffset,2
;   oozeShieldOutlines,1
;   oozeShieldSidewallShape,1
;   oozeShieldSidewallAngle,30
;   oozeShieldSpeedMultiplier,1
;   infillExtruder,0
;   internalInfillPattern,Rectilinear
;   externalInfillPattern,Rectilinear
;   infillPercentage,20
;   outlineOverlapPercentage,15
;   infillExtrusionWidthPercentage,100
;   minInfillLength,5
;   infillLayerInterval,1
;   internalInfillAngles,45,-45
;   overlapInternalInfillAngles,0
;   externalInfillAngles,45,-45
;   generateSupport,0
;   supportExtruder,0
;   supportInfillPercentage,30
;   supportExtraInflation,0
;   supportBaseLayers,0
;   denseSupportExtruder,0
;   denseSupportLayers,0
;   denseSupportInfillPercentage,70
;   supportLayerInterval,1
;   supportHorizontalPartOffset,0.3
;   supportUpperSeparationLayers,1
;   supportLowerSeparationLayers,1
;   supportType,0
;   supportGridSpacing,4
;   maxOverhangAngle,45
;   supportAngles,0
;   temperatureName,Nozzle,Bed
;   temperatureNumber,0,0
;   temperatureSetpointCount,1,1
;   temperatureSetpointLayers,1,1
;   temperatureSetpointTemperatures,200,60
;   temperatureStabilizeAtStartup,1,1
;   temperatureHeatedBed,0,1
;   fanLayers,1,2
;   fanSpeeds,0,100
;   blipFanToFullPower,0
;   adjustSpeedForCooling,1
;   minSpeedLayerTime,15
;   minCoolingSpeedSlowdown,20
;   increaseFanForCooling,0
;   minFanLayerTime,45
;   maxCoolingFanSpeed,100
;   increaseFanForBridging,1
;   bridgingFanSpeed,100
;   use5D,1
;   relativeEdistances,0
;   allowEaxisZeroing,1
;   independentExtruderAxes,0
;   includeM10123,0
;   stickySupport,1
;   applyToolheadOffsets,0
;   gcodeXoffset,0
;   gcodeYoffset,0
;   gcodeZoffset,0
;   overrideMachineDefinition,1
;   machineTypeOverride,0
;   strokeXoverride,300
;   strokeYoverride,300
;   strokeZoverride,385
;   originOffsetXoverride,0
;   originOffsetYoverride,0
;   originOffsetZoverride,0
;   homeXdirOverride,-1
;   homeYdirOverride,-1
;   homeZdirOverride,-1
;   flipXoverride,1
;   flipYoverride,-1
;   flipZoverride,1
;   toolheadOffsets,0,0|0,0|0,0|0,0|0,0|0,0
;   overrideFirmwareConfiguration,0
;   firmwareTypeOverride,RepRap (Marlin/Repetier/Sprinter)
;   GPXconfigOverride,r2
;   baudRateOverride,115200
;   overridePrinterModels,0
;   printerModelsOverride
;   startingGcode,M104 S[extruder0_temperature] ; set extruder temp,M140 S[extruder0_temperature] ; set bed temp,M190 S[extruder0_temperature] ; wait for bed temp,M109 S[extruder0_temperature] ; wait for extruder temp,G28 ; home all axes,G21 ; set units to millimeters,G90 ; use absolute coordinates,G1 Z5 F3000 ; lift nozzle,G1 X5 Y10 F1500 ; move to prime start point,G1 Z0.3 F3000 ; get ready to prime,;===Pre-load filament start,M83 ; use relative distances for extrusion,M117 Preload Extruder #1,T0,G1 E20 F120,G0 X5 Y50 F3000,G1 Y250 E15 F1200,G0 X5.5 F3000,G1 Y50 E15 F1200,G0 X6 F3000,G1 Y250 E15 F1200,G0 X6.5 F3000,G1 Y50 E15 F1200,G0 X7 F3000,G1 Y250 E15 F1200,G0 X7.5 F3000,G1 Y50 E15 F1200,G0 X8 F3000,G1 E-80 F2400,M117 Preload Extruder #2,T1,G1 E20 F120,G0 X8 Y50 F3000,G1 Y250 E15 F1200,G0 X8.5 F3000,G1 Y50 E15 F1200,G0 X9 F3000,G1 Y250 E15 F1200,G0 X9.5 F3000,G1 Y50 E15 F1200,G0 X10 F3000,G1 Y250 E15 F1200,G0 X10.5 F3000,G1 Y50 E15 F1200,G0 X11 F3000,G1 E-80 F2400,M117 Preload Extruder #3,T2,G1 E20 F120,G0 X11 Y50 F3000,G1 Y250 E15 F1200,G0 X11.5 F3000,G1 Y50 E15 F1200,G0 X12 F3000,G1 Y250 E15 F1200,G0 X12.5 F3000,G1 Y50 E15 F600,G0 X13 F3000,G1 Y250 E15 F1200,G0 X13.5 F3000,G1 Y50 E15 F1200,G0 X14 F3000,G1 E-80 F2400,M117 Preload Extruder #3,T3,G1 E20 F120,G0 X14 Y50 F3000,G1 Y250 E15 F1200,G0 X14.5 F3000,G1 Y50 E15 F1200,G0 X15 F3000,G1 Y250 E15 F1200,G0 X15.5 F3000,G1 Y50 E15 F1200,G0 X16 F3000,G1 Y250 E15 F1200,G0 X16.5 F3000,G1 Y50 E15 F1200,G0 X17 F3000,G0 Y155 F4800,M300 S4000 P200,M82 ; use absolute distances for extrusion,;===Pre-load filament end
;   layerChangeGcode,
;   retractionGcode,
;   toolChangeGcode,; unload old extruder's filament,G92 E0,G1 E-5 F1200;pull filament-1,G92 E0,G1 E-75 F2400;pull filament-2,G92 E0,;load new extruder's filament,T[new_tool];Change extruder,G92 E0,G1 E25 F2400; push filament-1,G92 E0,G1 E20 F1200; pushfilament-2,G92 E0,G1 E30 F1800; pushfilament-3,G92 E0,G1 E4 F600; push filament-4,G92 E0,,
;   endingGcode,G92 E0,G1 E-45 F2100 ;pull out filament,G92 E0,G28 XY,M106 S0 ; turn off FAN,M104 S0 ; turn off extruder,M140 S0 ; turn off bed,M84 ; disable motors
;   exportFileFormat,gcode
;   celebration,0
;   celebrationSong,Random Song
;   postProcessing,
;   defaultSpeed,3000
;   outlineUnderspeed,0.5
;   solidInfillUnderspeed,0.8
;   supportUnderspeed,0.8
;   rapidXYspeed,6000
;   rapidZspeed,480
;   minBridgingArea,50
;   bridgingExtraInflation,0
;   bridgingExtrusionMultiplier,1
;   bridgingSpeedMultiplier,1
;   useFixedBridgingAngle,0
;   fixedBridgingAngle,0
;   applyBridgingToPerimeters,0
;   filamentDiameters,1.75|1.75|1.75|1.75|1.75|1.75
;   filamentPricesPerKg,46|46|46|46|46|46
;   filamentDensities,1.25|1.25|1.25|1.25|1.25|1.25
;   useMinPrintHeight,0
;   minPrintHeight,25
;   useMaxPrintHeight,0
;   maxPrintHeight,50
;   useDiaphragm,0
;   diaphragmLayerInterval,20
;   robustSlicing,1
;   mergeAllIntoSolid,0
;   onlyRetractWhenCrossingOutline,1
;   retractBetweenLayers,0
;   useRetractionMinTravel,1
;   retractionMinTravel,0.5
;   retractWhileWiping,0
;   onlyWipeOutlines,1
;   avoidCrossingOutline,1
;   maxMovementDetourFactor,8
;   toolChangeRetractionDistance,0
;   toolChangeExtraRestartDistance,-0.5
;   toolChangeRetractionSpeed,600
;   externalThinWallType,0
;   internalThinWallType,2
;   thinWallAllowedOverlapPercentage,10
;   singleExtrusionMinLength,1
;   singleExtrusionMinPrintingWidthPercentage,50
;   singleExtrusionMaxPrintingWidthPercentage,200
;   singleExtrusionEndpointExtension,0.2
;   horizontalSizeCompensation,0
G90
M82
M106 S0
M140 S60
M190 S60
M104 S200 ; set extruder temp
M140 S200 ; set bed temp
M190 S200 ; wait for bed temp
M109 S200 ; wait for extruder temp
G28 ; home all axes
G21 ; set units to millimeters
G90 ; use absolute coordinates
G1 Z5 F3000 ; lift nozzle
G1 X5 Y10 F1500 ; move to prime start point
G1 Z0.3 F3000 ; get ready to prime
;===Pre-load filament start
M83 ; use relative distances for extrusion
M117 Preload Extruder #1
T0
G1 E20 F120
G0 X5 Y50 F3000
G1 Y250 E15 F1200
G0 X5.5 F3000
G1 Y50 E15 F1200
G0 X6 F3000
G1 Y250 E15 F1200
G0 X6.5 F3000
G1 Y50 E15 F1200
G0 X7 F3000
G1 Y250 E15 F1200
G0 X7.5 F3000
G1 Y50 E15 F1200
G0 X8 F3000
G1 E-80 F2400
M117 Preload Extruder #2
T1
G1 E20 F120
G0 X8 Y50 F3000
G1 Y250 E15 F1200
G0 X8.5 F3000
G1 Y50 E15 F1200
G0 X9 F3000
G1 Y250 E15 F1200
G0 X9.5 F3000
G1 Y50 E15 F1200
G0 X10 F3000
G1 Y250 E15 F1200
G0 X10.5 F3000
G1 Y50 E15 F1200
G0 X11 F3000
G1 E-80 F2400
M117 Preload Extruder #3
T2
G1 E20 F120
G0 X11 Y50 F3000
G1 Y250 E15 F1200
G0 X11.5 F3000
G1 Y50 E15 F1200
G0 X12 F3000
G1 Y250 E15 F1200
G0 X12.5 F3000
G1 Y50 E15 F600
G0 X13 F3000
G1 Y250 E15 F1200
G0 X13.5 F3000
G1 Y50 E15 F1200
G0 X14 F3000
G1 E-80 F2400
M117 Preload Extruder #3
T3
G1 E20 F120
G0 X14 Y50 F3000
G1 Y250 E15 F1200
G0 X14.5 F3000
G1 Y50 E15 F1200
G0 X15 F3000
G1 Y250 E15 F1200
G0 X15.5 F3000
G1 Y50 E15 F1200
G0 X16 F3000
G1 Y250 E15 F1200
G0 X16.5 F3000
G1 Y50 E15 F1200
G0 X17 F3000
G0 Y155 F4800
M300 S4000 P200
M82 ; use absolute distances for extrusion
;===Pre-load filament end
; process Process1
; layer 1, Z = 0.300
; unload old extruder's filament
G92 E0
G1 E-5 F1200;pull filament-1
G92 E0
G1 E-75 F2400;pull filament-2
G92 E0
;load new extruder's filament
T0;Change extruder
G92 E0
G1 E25 F2400; push filament-1
G92 E0
G1 E20 F1200; pushfilament-2
G92 E0
G1 E30 F1800; pushfilament-3
G92 E0
G1 E4 F600; push filament-4
G92 E0
G92 E0.0000
G1 E-12.0000 F2100
; feature skirt
; tool H0.300 W0.480
G1 Z0.300 F480
G1 X118.105 Y118.840 F6000
G1 E0.1500 F2100
G92 E0.0000
G1 X159.895 Y118.840 E2.5019 F1500
G1 X161.160 Y120.105 E2.6090
G1 X161.160 Y160.840 E5.0477
G1 X177.895 Y160.840 E6.0496
G1 X179.160 Y162.105 E6.1567
G1 X179.160 Y183.895 E7.4612
G1 X177.895 Y185.160 E7.5683
G1 X96.105 Y185.160 E12.4649
G1 X94.840 Y183.895 E12.5720
G1 X94.840 Y162.105 E13.8765
G1 X96.105 Y160.840 E13.9837
G1 X116.840 Y160.840 E15.2250
G1 X116.840 Y120.105 E17.6637
G1 X118.105 Y118.840 E17.7709
G92 E0.0000
G1 E-12.0000 F2100
G1 X118.304 Y119.320 F6000
G1 E0.1500 F2100
G92 E0.0000
G1 X159.696 Y119.320 E2.4781 F1500
G1 X160.680 Y120.304 E2.5614
G1 X160.680 Y161.320 E5.0169
G1 X177.696 Y161.320 E6.0356
G1 X178.680 Y162.304 E6.1190
G1 X178.680 Y183.696 E7.3996
G1 X177.696 Y184.680 E7.4830
G1 X96.304 Y184.680 E12.3557
G1 X95.320 Y183.696 E12.4391
G1 X95.320 Y162.304 E13.7198
G1 X96.304 Y161.320 E13.8031
G1 X117.320 Y161.320 E15.0613
G1 X117.320 Y120.304 E17.5168
G1 X118.304 Y119.320 E17.6001
G92 E0.0000
G1 E-12.0000 F2100
G1 X118.503 Y119.800 F6000
G1 E0.1500 F2100
G92 E0.0000
G1 X159.497 Y119.800 E2.4542 F1500
G1 X160.200 Y120.503 E2.5138
G1 X160.200 Y161.497 E4.9680
G1 X159.897 Y161.800 E4.9937
G1 X177.497 Y161.800 E6.0473
G1 X178.200 Y162.503 E6.1069
G1 X178.200 Y183.497 E7.3637
G1 X177.497 Y184.200 E7.4233
G1 X96.503 Y184.200 E12.2722
G1 X95.800 Y183.497 E12.3317
G1 X95.800 Y162.503 E13.5886
G1 X96.503 Y161.800 E13.6481
G1 X118.103 Y161.800 E14.9413
G1 X117.800 Y161.497 E14.9669
G1 X117.800 Y120.503 E17.4212
G1 X118.503 Y119.800 E17.4807
G92 E0.0000
G1 E-12.0000 F2100
G1 X118.702 Y120.280 F6000
G1 E0.1500 F2100
G92 E0.0000
G1 X159.298 Y120.280 E2.4304 F1500
G1 X159.720 Y120.702 E2.4661
G1 X159.720 Y161.298 E4.8966
G1 X159.298 Y161.720 E4.9323
G1 X118.702 Y161.720 E7.3627
G1 X118.280 Y161.298 E7.3984
G1 X118.280 Y120.702 E9.8289
G1 X118.702 Y120.280 E9.8646
G92 E0.0000
G1 E-12.0000 F2100
G1 X118.901 Y120.760 F6000
G1 E0.1500 F2100
G92 E0.0000
G1 X159.099 Y120.760 E2.4066 F1500
G1 X159.240 Y120.901 E2.4185
G1 X159.240 Y161.099 E4.8252
G1 X159.099 Y161.240 E4.8371
G1 X118.901 Y161.240 E7.2437
G1 X118.760 Y161.099 E7.2556
G1 X118.760 Y120.901 E9.6622
G1 X118.901 Y120.760 E9.6741
G92 E0.0000
G1 E-12.0000 F2100
G1 X96.702 Y162.280 F6000
G1 E0.1500 F2100
G92 E0.0000
G1 X177.298 Y162.280 E4.8252 F1500
G1 X177.720 Y162.702 E4.8609
G1 X177.720 Y183.298 E6.0940
G1 X177.298 Y183.720 E6.1297
G1 X96.702 Y183.720 E10.9548
G1 X96.280 Y183.298 E10.9905
G1 X96.280 Y162.702 E12.2236
G1 X96.702 Y162.280 E12.2593
G92 E0.0000
G1 E-12.0000 F2100
G1 X96.901 Y162.760 F6000
G1 E0.1500 F2100
G92 E0.0000
G1 X177.099 Y162.760 E4.8014 F1500
G1 X177.240 Y162.901 E4.8133
G1 X177.240 Y183.099 E6.0225
G1 X177.099 Y183.240 E6.0344
G1 X96.901 Y183.240 E10.8358
G1 X96.760 Y183.099 E10.8477
G1 X96.760 Y162.901 E12.0570
G1 X96.901 Y162.760 E12.0689
G92 E0.0000
G1 E-12.0000 F2100
; feature prime pillar
; tool H0.300 W0.420
G1 X97.210 Y163.210 F6000
G1 E0.1500 F2100
G92 E0.0000
G1 X116.790 Y163.210 E1.0257 F1500
G1 X116.790 Y182.790 E2.0514
G1 X97.210 Y182.790 E3.0771
G1 X97.210 Y163.210 E4.1028
G92 E0.0000
G1 E-12.0000 F2100
G1 X97.493 Y182.199 F6000
G1 E0.1500 F2100
G92 E0.0000
G1 X97.801 Y182.506 E0.0228 F1500
G1 X98.395 Y182.506 E0.0539
G1 X97.493 Y181.605 E0.1207
G1 X97.493 Y181.011 E0.1518
G1 X98.989 Y182.506 E0.2626
G1 X99.583 Y182.506 E0.2937
G1 X97.493 Y180.417 E0.4485
G1 X97.493 Y179.823 E0.4796
G1 X100.177 Y182.506 E0.6784
G1 X100.771 Y182.506 E0.7095
G1 X97.493 Y179.229 E0.9523
G1 X97.493 Y178.635 E0.9834
G1 X101.365 Y182.506 E1.2702
G1 X101.959 Y182.506 E1.3013
G1 X97.493 Y178.041 E1.6321
G1 X97.493 Y177.447 E1.6633
G1 X102.553 Y182.506 E2.0381
G1 X103.147 Y182.506 E2.0692
G1 X97.493 Y176.853 E2.4880
G1 X97.493 Y176.259 E2.5191
G1 X103.741 Y182.506 E2.9819
G1 X104.335 Y182.506 E3.0130
G1 X97.493 Y175.665 E3.5198
G1 X97.493 Y175.071 E3.5510
G1 X104.929 Y182.506 E4.1018
G1 X105.523 Y182.506 E4.1329
G1 X97.493 Y174.477 E4.7277
G1 X97.493 Y173.883 E4.7588
G1 X106.117 Y182.506 E5.3976
G1 X106.711 Y182.506 E5.4288
G1 X97.493 Y173.289 E6.1116
G1 X97.493 Y172.695 E6.1427
G1 X107.305 Y182.506 E6.8695
G1 X107.898 Y182.506 E6.9007
G1 X97.493 Y172.102 E7.6715
G1 X97.493 Y171.508 E7.7026
G1 X108.492 Y182.506 E8.5174
G1 X109.086 Y182.506 E8.5486
G1 X97.493 Y170.914 E9.4074
G1 X97.493 Y170.320 E9.4385
G1 X109.680 Y182.506 E10.3414
G1 X110.274 Y182.506 E10.3725
G1 X97.493 Y169.726 E11.3193
G1 X97.493 Y169.132 E11.3504
G1 X110.868 Y182.506 E12.3413
G1 X111.462 Y182.506 E12.3724
G1 X97.493 Y168.538 E13.4072
G1 X97.493 Y167.944 E13.4384
G1 X112.056 Y182.506 E14.5172
G1 X112.650 Y182.506 E14.5483
G1 X97.493 Y167.350 E15.6712
G1 X97.493 Y166.756 E15.7023
G1 X113.244 Y182.506 E16.8692
G1 X113.838 Y182.506 E16.9003
G1 X97.493 Y166.162 E18.1111
G1 X97.493 Y165.568 E18.1423
G1 X114.432 Y182.506 E19.3971
G1 X115.026 Y182.506 E19.4282
G1 X97.493 Y164.974 E20.7271
G1 X97.493 Y164.380 E20.7582
G1 X115.620 Y182.506 E22.1011
G1 X116.214 Y182.506 E22.1322
G1 X97.493 Y163.786 E23.5191
G1 X97.493 Y163.494 E23.5344
G1 X97.795 Y163.494 E23.5502
G1 X116.507 Y182.205 E24.9364
G1 X116.507 Y181.611 E24.9675
G1 X98.389 Y163.494 E26.3097
G1 X98.983 Y163.494 E26.3409
G1 X116.507 Y181.017 E27.6391
G1 X116.507 Y180.423 E27.6702
G1 X99.577 Y163.494 E28.9244
G1 X100.171 Y163.494 E28.9555
G1 X116.507 Y179.829 E30.1657
G1 X116.507 Y179.235 E30.1968
G1 X100.765 Y163.494 E31.3630
G1 X101.359 Y163.494 E31.3941
G1 X116.507 Y178.641 E32.5163
G1 X116.507 Y178.047 E32.5474
G1 X101.953 Y163.494 E33.6256
G1 X102.547 Y163.494 E33.6567
G1 X116.507 Y177.453 E34.6909
G1 X116.507 Y176.859 E34.7220
G1 X103.141 Y163.494 E35.7122
G1 X103.735 Y163.494 E35.7433
G1 X116.507 Y176.265 E36.6895
G1 X116.507 Y175.671 E36.7206
G1 X104.329 Y163.494 E37.6227
G1 X104.923 Y163.494 E37.6539
G1 X116.507 Y175.077 E38.5120
G1 X116.507 Y174.483 E38.5431
G1 X105.517 Y163.494 E39.3573
G1 X106.111 Y163.494 E39.3884
G1 X116.507 Y173.889 E40.1586
G1 X116.507 Y173.295 E40.1897
G1 X106.705 Y163.494 E40.9158
G1 X107.299 Y163.494 E40.9470
G1 X116.507 Y172.701 E41.6291
G1 X116.507 Y172.107 E41.6602
G1 X107.893 Y163.494 E42.2984
G1 X108.486 Y163.494 E42.3295
G1 X116.507 Y171.514 E42.9236
G1 X116.507 Y170.920 E42.9548
G1 X109.080 Y163.494 E43.5049
G1 X109.674 Y163.494 E43.5360
G1 X116.507 Y170.326 E44.0422
G1 X116.507 Y169.732 E44.0733
G1 X110.268 Y163.494 E44.5354
G1 X110.862 Y163.494 E44.5665
G1 X116.507 Y169.138 E44.9847
G1 X116.507 Y168.544 E45.0158
G1 X111.456 Y163.494 E45.3899
G1 X112.050 Y163.494 E45.4210
G1 X116.507 Y167.950 E45.7512
G1 X116.507 Y167.356 E45.7823
