; G-Code generated by Simplify3D(R) Version 4.1.2
; Jun 23, 2021 at 6:03:44 PM
; Settings Summary
;   processName,Process1
;   applyToModels,3DBenchy
;   profileName,Z6 (modified)
;   profileVersion,2021-06-05 18:44:24
;   baseProfile,Default (modified)
;   printMaterial,PLA
;   printQuality,Medium
;   printExtruders,
;   extruderName,Primary Extruder
;   extruderToolheadNumber,0
;   extruderDiameter,0.4
;   extruderAutoWidth,0
;   extruderWidth,0.4
;   extrusionMultiplier,0.9
;   extruderUseRetract,1
;   extruderRetractionDistance,12
;   extruderExtraRestartDistance,0
;   extruderRetractionZLift,0
;   extruderRetractionSpeed,2400
;   extruderUseCoasting,0
;   extruderCoastingDistance,0.2
;   extruderUseWipe,0
;   extruderWipeDistance,1.5
;   primaryExtruder,0
;   layerHeight,0.2
;   topSolidLayers,3
;   bottomSolidLayers,3
;   perimeterOutlines,3
;   printPerimetersInsideOut,1
;   startPointOption,2
;   startPointOriginX,0
;   startPointOriginY,0
;   sequentialIslands,0
;   spiralVaseMode,0
;   firstLayerHeightPercentage,150
;   firstLayerWidthPercentage,100
;   firstLayerUnderspeed,0.5
;   useRaft,1
;   raftExtruder,0
;   raftTopLayers,3
;   raftBaseLayers,2
;   raftOffset,3
;   raftSeparationDistance,0.14
;   raftTopInfill,100
;   aboveRaftSpeedMultiplier,0.3
;   useSkirt,0
;   skirtExtruder,0
;   skirtLayers,1
;   skirtOutlines,5
;   skirtOffset,0
;   usePrimePillar,0
;   primePillarExtruder,999
;   primePillarWidth,12
;   primePillarLocation,7
;   primePillarSpeedMultiplier,1
;   useOozeShield,0
;   oozeShieldExtruder,999
;   oozeShieldOffset,2
;   oozeShieldOutlines,1
;   oozeShieldSidewallShape,1
;   oozeShieldSidewallAngle,30
;   oozeShieldSpeedMultiplier,1
;   infillExtruder,0
;   internalInfillPattern,Fast Honeycomb
;   externalInfillPattern,Rectilinear
;   infillPercentage,10
;   outlineOverlapPercentage,25
;   infillExtrusionWidthPercentage,100
;   minInfillLength,5
;   infillLayerInterval,1
;   internalInfillAngles,0
;   overlapInternalInfillAngles,0
;   externalInfillAngles,45,-45
;   generateSupport,0
;   supportExtruder,0
;   supportInfillPercentage,30
;   supportExtraInflation,0
;   supportBaseLayers,0
;   denseSupportExtruder,0
;   denseSupportLayers,0
;   denseSupportInfillPercentage,70
;   supportLayerInterval,1
;   supportHorizontalPartOffset,0.3
;   supportUpperSeparationLayers,1
;   supportLowerSeparationLayers,1
;   supportType,0
;   supportGridSpacing,4
;   maxOverhangAngle,50
;   supportAngles,0
;   temperatureName,Primary Extruder,bed
;   temperatureNumber,0,0
;   temperatureSetpointCount,1,1
;   temperatureSetpointLayers,1,1
;   temperatureSetpointTemperatures,195,50
;   temperatureStabilizeAtStartup,1,1
;   temperatureHeatedBed,0,1
;   fanLayers,1,2
;   fanSpeeds,0,100
;   blipFanToFullPower,0
;   adjustSpeedForCooling,1
;   minSpeedLayerTime,15
;   minCoolingSpeedSlowdown,20
;   increaseFanForCooling,0
;   minFanLayerTime,45
;   maxCoolingFanSpeed,100
;   increaseFanForBridging,0
;   bridgingFanSpeed,100
;   use5D,1
;   relativeEdistances,0
;   allowEaxisZeroing,1
;   independentExtruderAxes,0
;   includeM10123,0
;   stickySupport,1
;   applyToolheadOffsets,0
;   gcodeXoffset,0
;   gcodeYoffset,0
;   gcodeZoffset,0
;   overrideMachineDefinition,1
;   machineTypeOverride,0
;   strokeXoverride,150
;   strokeYoverride,150
;   strokeZoverride,150
;   originOffsetXoverride,0
;   originOffsetYoverride,0
;   originOffsetZoverride,0
;   homeXdirOverride,-1
;   homeYdirOverride,-1
;   homeZdirOverride,-1
;   flipXoverride,1
;   flipYoverride,-1
;   flipZoverride,1
;   toolheadOffsets,0,0|0,0|0,0|0,0|0,0|0,0
;   overrideFirmwareConfiguration,0
;   firmwareTypeOverride,RepRap (Marlin/Repetier/Sprinter)
;   GPXconfigOverride,r2
;   baudRateOverride,115200
;   overridePrinterModels,0
;   printerModelsOverride
;   startingGcode,G28 ; home all axes,G1 Z5 F3000 ; lift,G1 X5 Y10 F1500 ; move to prime,G1 Z0.2 F3000 ; get ready to prime,G92 E0 ; reset extrusion distance,G1 Y120 E10 F600 ; prime nozzle,G1 Y80 F5000 ; quick wipe,G92 E0 ; reset extrusion distance
;   layerChangeGcode,
;   retractionGcode,
;   toolChangeGcode,
;   endingGcode,G28 XY; home x&y axis,M106 S0 ; turn off cooling fan,M104 S0 ; turn off extruder,M140 S0 ; turn off bed,M84 ; disable motors
;   exportFileFormat,gcode
;   celebration,0
;   celebrationSong,Random Song
;   postProcessing,
;   defaultSpeed,1800
;   outlineUnderspeed,0.5
;   solidInfillUnderspeed,0.8
;   supportUnderspeed,0.8
;   rapidXYspeed,4800
;   rapidZspeed,720
;   minBridgingArea,50
;   bridgingExtraInflation,0
;   bridgingExtrusionMultiplier,1
;   bridgingSpeedMultiplier,1
;   useFixedBridgingAngle,0
;   fixedBridgingAngle,0
;   applyBridgingToPerimeters,0
;   filamentDiameters,1.75|1.75|1.75|1.75|1.75|1.75
;   filamentPricesPerKg,46|46|46|46|46|46
;   filamentDensities,1.25|1.25|1.25|1.25|1.25|1.25
;   useMinPrintHeight,0
;   minPrintHeight,0
;   useMaxPrintHeight,0
;   maxPrintHeight,0
;   useDiaphragm,0
;   diaphragmLayerInterval,20
;   robustSlicing,1
;   mergeAllIntoSolid,0
;   onlyRetractWhenCrossingOutline,0
;   retractBetweenLayers,1
;   useRetractionMinTravel,1
;   retractionMinTravel,3
;   retractWhileWiping,0
;   onlyWipeOutlines,1
;   avoidCrossingOutline,0
;   maxMovementDetourFactor,3
;   toolChangeRetractionDistance,12
;   toolChangeExtraRestartDistance,-0.5
;   toolChangeRetractionSpeed,600
;   externalThinWallType,0
;   internalThinWallType,2
;   thinWallAllowedOverlapPercentage,10
;   singleExtrusionMinLength,1
;   singleExtrusionMinPrintingWidthPercentage,50
;   singleExtrusionMaxPrintingWidthPercentage,200
;   singleExtrusionEndpointExtension,0.2
;   horizontalSizeCompensation,0
G90
M82
M106 S0
M140 S50
M190 S50
M104 S195 T0
M109 S195 T0
G28 ; home all axes
G1 Z5 F3000 ; lift
G1 X5 Y10 F1500 ; move to prime
G1 Z0.2 F3000 ; get ready to prime
G92 E0 ; reset extrusion distance
G1 Y120 E10 F600 ; prime nozzle
G1 Y80 F5000 ; quick wipe
G92 E0 ; reset extrusion distance
; process Process1
; layer 1, Z = 0.750
T0
G92 E0.0000
G1 E-12.0000 F2400
; feature raft
; tool H0.750 W0.800
G1 Z0.750 F720
G1 X48.452 Y66.469 F4800
G1 E0.0000 F2400
G92 E0.0000
G1 X48.726 Y66.299 E0.0723 F225
G1 X49.340 Y66.016 E0.2242
G1 X49.638 Y65.921 E0.2944
G1 X50.367 Y65.780 E0.4610
G1 X50.535 Y65.759 E0.4990
G1 X74.038 Y64.331 E5.7854
G1 X74.100 Y64.328 E5.7994
G1 X75.608 Y64.309 E6.1379
G1 X75.739 Y64.314 E6.1674
G1 X77.436 Y64.464 E6.5498
G1 X77.545 Y64.479 E6.5745
G1 X78.561 Y64.657 E6.8061
G1 X78.644 Y64.674 E6.8252
G1 X79.715 Y64.935 E7.0726
G1 X79.797 Y64.958 E7.0916
G1 X80.805 Y65.274 E7.3288
G1 X80.882 Y65.301 E7.3472
G1 X81.787 Y65.649 E7.5648
G1 X81.868 Y65.683 E7.5846
G1 X82.954 Y66.188 E7.8534
G1 X83.029 Y66.226 E7.8724
G1 X83.836 Y66.667 E8.0788
G1 X83.908 Y66.709 E8.0976
G1 X84.888 Y67.330 E8.3580
G1 X84.960 Y67.378 E8.3774
G1 X85.777 Y67.975 E8.6045
G1 X85.849 Y68.031 E8.6250
G1 X86.783 Y68.819 E8.8995
G1 X86.848 Y68.878 E8.9191
G1 X87.528 Y69.535 E9.1314
G1 X87.590 Y69.599 E9.1513
G1 X88.427 Y70.523 E9.4313
G1 X88.481 Y70.587 E9.4500
G1 X89.001 Y71.242 E9.6378
G1 X89.054 Y71.313 E9.6577
G1 X89.830 Y72.440 E9.9649
G1 X89.891 Y72.537 E9.9906
G1 X90.379 Y73.398 E10.2128
G1 X90.513 Y73.741 E10.2956
G1 X90.678 Y74.436 E10.4559
G1 X90.713 Y74.725 E10.5212
G1 X90.717 Y75.205 E10.6291
G1 X90.686 Y75.501 E10.6958
G1 X90.535 Y76.178 E10.8516
G1 X90.443 Y76.448 E10.9155
G1 X90.260 Y76.837 E11.0120
G1 X90.180 Y76.983 E11.0494
G1 X89.418 Y78.182 E11.3684
G1 X89.372 Y78.249 E11.3867
G1 X89.015 Y78.739 E11.5228
G1 X88.963 Y78.807 E11.5420
G1 X87.970 Y79.998 E11.8900
G1 X87.898 Y80.077 E11.9141
G1 X87.121 Y80.866 E12.1628
G1 X87.062 Y80.922 E12.1810
G1 X86.360 Y81.552 E12.3928
G1 X86.297 Y81.605 E12.4111
G1 X85.471 Y82.257 E12.6475
G1 X85.406 Y82.305 E12.6655
G1 X84.613 Y82.855 E12.8823
G1 X84.547 Y82.897 E12.8998
G1 X83.732 Y83.392 E13.1139
G1 X83.668 Y83.429 E13.1306
G1 X82.817 Y83.881 E13.3470
G1 X82.749 Y83.914 E13.3638
G1 X81.944 Y84.284 E13.5627
G1 X81.873 Y84.315 E13.5802
G1 X80.891 Y84.696 E13.8166
G1 X80.816 Y84.723 E13.8344
G1 X79.964 Y84.996 E14.0354
G1 X79.893 Y85.016 E14.0519
G1 X79.008 Y85.245 E14.2572
G1 X78.940 Y85.261 E14.2728
G1 X78.075 Y85.436 E14.4709
G1 X78.003 Y85.449 E14.4874
G1 X77.116 Y85.577 E14.6887
G1 X77.045 Y85.585 E14.7046
G1 X76.152 Y85.665 E14.9059
G1 X76.080 Y85.669 E14.9221
G1 X75.200 Y85.699 E15.1198
G1 X75.127 Y85.699 E15.1362
G1 X74.229 Y85.679 E15.3379
G1 X74.179 Y85.677 E15.3491
G1 X50.572 Y84.243 E20.6588
G1 X50.490 Y84.236 E20.6771
G1 X50.095 Y84.187 E20.7665
G1 X49.879 Y84.141 E20.8160
G1 X49.312 Y83.970 E20.9491
G1 X49.094 Y83.882 E21.0019
G1 X48.668 Y83.664 E21.1093
G1 X48.501 Y83.562 E21.1532
G1 X48.130 Y83.295 E21.2558
G1 X47.960 Y83.149 E21.3062
G1 X47.590 Y82.771 E21.4251
G1 X47.450 Y82.601 E21.4744
G1 X47.180 Y82.212 E21.5807
G1 X47.081 Y82.041 E21.6250
G1 X46.882 Y81.633 E21.7270
G1 X46.801 Y81.424 E21.7772
G1 X46.632 Y80.839 E21.9140
G1 X46.586 Y80.597 E21.9694
G1 X46.533 Y80.028 E22.0977
G1 X46.528 Y79.907 E22.1248
G1 X46.531 Y69.939 E24.3628
G1 X46.545 Y69.745 E24.4064
G1 X46.642 Y69.103 E24.5520
G1 X46.723 Y68.809 E24.6206
G1 X47.026 Y68.059 E24.8022
G1 X47.188 Y67.771 E24.8763
G1 X47.609 Y67.202 E25.0352
G1 X47.839 Y66.963 E25.1096
G1 X48.452 Y66.469 E25.2865
G92 E0.0000
G1 E-12.0000 F2400
G1 X58.808 Y65.857 F4800
G1 E0.0000 F2400
G92 E0.0000
G1 X80.655 Y65.857 E4.9048 F225
G1 X80.676 Y65.864 E4.9097
G1 X81.562 Y66.205 E5.1229
G1 X81.624 Y66.232 E5.1381
G1 X82.692 Y66.728 E5.4025
G1 X82.750 Y66.757 E5.4171
G1 X83.540 Y67.189 E5.6191
G1 X83.595 Y67.221 E5.6336
G1 X84.559 Y67.831 E5.8896
G1 X84.614 Y67.869 E5.9045
G1 X84.990 Y68.143 E6.0089
G1 X47.667 Y68.143 E14.3880
G1 X47.568 Y68.319 E14.4334
G1 X47.292 Y69.001 E14.5986
G1 X47.230 Y69.228 E14.6513
G1 X47.142 Y69.812 E14.7839
G1 X47.131 Y69.961 E14.8176
G1 X47.131 Y70.429 E14.9225
G1 X87.532 Y70.429 E23.9928
G1 X87.975 Y70.919 E24.1411
G1 X88.017 Y70.968 E24.1556
G1 X88.525 Y71.607 E24.3389
G1 X88.565 Y71.662 E24.3542
G1 X89.291 Y72.714 E24.6412
G1 X47.130 Y72.714 E34.1064
G1 X47.129 Y75.000 E34.6196
G1 X90.115 Y75.000 E44.2702
G1 X90.117 Y75.176 E44.3098
G1 X90.093 Y75.404 E44.3611
G1 X89.956 Y76.015 E44.5018
G1 X89.886 Y76.223 E44.5510
G1 X89.725 Y76.565 E44.6358
G1 X89.664 Y76.677 E44.6645
G1 X89.277 Y77.286 E44.8265
G1 X47.129 Y77.286 E54.2890
G1 X47.128 Y79.571 E54.8021
G1 X87.544 Y79.571 E63.8758
G1 X87.517 Y79.604 E63.8853
G1 X87.462 Y79.665 E63.9038
G1 X86.700 Y80.439 E64.1477
G1 X86.655 Y80.482 E64.1616
G1 X85.966 Y81.099 E64.3692
G1 X85.918 Y81.139 E64.3833
G1 X85.107 Y81.780 E64.6154
G1 X85.057 Y81.817 E64.6293
G1 X84.999 Y81.857 E64.6452
G1 X47.668 Y81.857 E73.0261
G1 X47.687 Y81.889 E73.0343
G1 X47.929 Y82.239 E73.1299
G1 X48.037 Y82.369 E73.1678
G1 X48.371 Y82.711 E73.2751
G1 X48.502 Y82.824 E73.3140
G1 X48.833 Y83.062 E73.4057
G1 X48.962 Y83.141 E73.4394
G1 X49.343 Y83.336 E73.5357
G1 X49.511 Y83.404 E73.5763
G1 X50.028 Y83.560 E73.6975
G1 X50.194 Y83.595 E73.7357
G1 X50.555 Y83.639 E73.8172
G1 X50.618 Y83.645 E73.8314
G1 X58.815 Y84.143 E75.6751
G1 X80.656 Y84.143 E80.5786
G92 E0.0000
G1 E-12.0000 F2400
; layer 2, Z = 1.250
M106 S255
; tool H0.500 W0.800
G1 Z1.250 F720
G1 X80.891 Y84.696 F4800
G1 E0.0000 F2400
G92 E0.0000
G1 X80.816 Y84.723 E0.0119 F450
G1 X79.964 Y84.996 E0.1459
G1 X79.893 Y85.016 E0.1569
G1 X79.008 Y85.245 E0.2937
G1 X78.940 Y85.261 E0.3042
G1 X78.075 Y85.436 E0.4362
G1 X78.003 Y85.449 E0.4472
G1 X77.116 Y85.577 E0.5814
G1 X77.045 Y85.585 E0.5920
G1 X76.152 Y85.665 E0.7262
G1 X76.080 Y85.669 E0.7370
G1 X75.200 Y85.699 E0.8688
G1 X75.127 Y85.699 E0.8797
G1 X74.229 Y85.679 E1.0142
G1 X74.179 Y85.677 E1.0217
G1 X50.572 Y84.243 E4.5614
G1 X50.490 Y84.236 E4.5737
G1 X50.095 Y84.187 E4.6333
G1 X49.879 Y84.141 E4.6663
G1 X49.312 Y83.970 E4.7550
G1 X49.094 Y83.882 E4.7902
G1 X48.668 Y83.664 E4.8618
G1 X48.501 Y83.562 E4.8911
G1 X48.130 Y83.295 E4.9595
G1 X47.960 Y83.149 E4.9931
G1 X47.590 Y82.771 E5.0723
G1 X47.450 Y82.601 E5.1052
G1 X47.180 Y82.212 E5.1761
G1 X47.081 Y82.041 E5.2056
G1 X46.882 Y81.633 E5.2736
G1 X46.801 Y81.424 E5.3070
G1 X46.632 Y80.839 E5.3983
G1 X46.586 Y80.597 E5.4352
G1 X46.533 Y80.028 E5.5207
G1 X46.528 Y79.907 E5.5388
G1 X46.531 Y69.939 E7.0308
G1 X46.545 Y69.745 E7.0599
G1 X46.642 Y69.103 E7.1570
G1 X46.723 Y68.809 E7.2027
G1 X47.026 Y68.059 E7.3237
G1 X47.188 Y67.771 E7.3731
G1 X47.609 Y67.202 E7.4791
G1 X47.839 Y66.963 E7.5287
G1 X48.452 Y66.469 E7.6466
G1 X48.726 Y66.299 E7.6948
G1 X49.340 Y66.016 E7.7960
G1 X49.638 Y65.921 E7.8428
G1 X50.367 Y65.780 E7.9539
G1 X50.535 Y65.759 E7.9792
G1 X74.038 Y64.331 E11.5035
G1 X74.100 Y64.328 E11.5128
G1 X75.608 Y64.309 E11.7385
G1 X75.739 Y64.314 E11.7582
G1 X77.436 Y64.464 E12.0131
G1 X77.545 Y64.479 E12.0296
G1 X78.561 Y64.657 E12.1840
G1 X78.644 Y64.674 E12.1967
G1 X79.715 Y64.935 E12.3616
G1 X79.797 Y64.958 E12.3743
G1 X80.805 Y65.274 E12.5324
G1 X80.882 Y65.301 E12.5447
G1 X81.787 Y65.649 E12.6898
G1 X81.868 Y65.683 E12.7030
G1 X82.954 Y66.188 E12.8822
G1 X83.029 Y66.226 E12.8949
G1 X83.836 Y66.667 E13.0324
G1 X83.908 Y66.709 E13.0450
G1 X84.888 Y67.330 E13.2186
G1 X84.960 Y67.378 E13.2315
G1 X85.777 Y67.975 E13.3829
G1 X85.849 Y68.031 E13.3965
G1 X86.783 Y68.819 E13.5796
G1 X86.848 Y68.878 E13.5926
G1 X87.528 Y69.535 E13.7342
G1 X87.590 Y69.599 E13.7475
G1 X88.427 Y70.523 E13.9341
G1 X88.481 Y70.587 E13.9466
G1 X89.001 Y71.242 E14.0717
G1 X89.054 Y71.313 E14.0850
G1 X89.830 Y72.440 E14.2899
G1 X89.891 Y72.537 E14.3070
G1 X90.379 Y73.398 E14.4551
G1 X90.513 Y73.741 E14.5103
G1 X90.678 Y74.436 E14.6172
G1 X90.713 Y74.725 E14.6607
G1 X90.717 Y75.205 E14.7326
G1 X90.686 Y75.501 E14.7771
G1 X90.535 Y76.178 E14.8809
G1 X90.443 Y76.448 E14.9236
G1 X90.260 Y76.837 E14.9879
G1 X90.180 Y76.983 E15.0128
G1 X89.418 Y78.182 E15.2255
G1 X89.372 Y78.249 E15.2377
G1 X89.015 Y78.739 E15.3284
G1 X88.963 Y78.807 E15.3413
G1 X87.970 Y79.998 E15.5733
G1 X87.898 Y80.077 E15.5893
G1 X87.121 Y80.866 E15.7551
G1 X87.062 Y80.922 E15.7672
G1 X86.360 Y81.552 E15.9084
G1 X86.297 Y81.605 E15.9206
G1 X85.471 Y82.257 E16.0782
G1 X85.406 Y82.305 E16.0903
G1 X84.613 Y82.855 E16.2348
G1 X84.547 Y82.897 E16.2464
G1 X83.732 Y83.392 E16.3892
G1 X83.668 Y83.429 E16.4003
G1 X82.817 Y83.881 E16.5445
G1 X82.749 Y83.914 E16.5558
G1 X81.944 Y84.284 E16.6883
G1 X81.873 Y84.315 E16.7000
G1 X80.891 Y84.696 E16.8577
G1 X80.656 Y84.143 F4800
G92 E0.0000
G1 X58.815 Y84.143 E3.2690 F450
G1 X50.618 Y83.645 E4.4981
G1 X50.555 Y83.639 E4.5076
G1 X50.194 Y83.595 E4.5619
G1 X50.028 Y83.560 E4.5874
G1 X49.511 Y83.404 E4.6682
G1 X49.343 Y83.336 E4.6953
G1 X48.962 Y83.141 E4.7594
G1 X48.833 Y83.062 E4.7819
G1 X48.502 Y82.824 E4.8431
G1 X48.371 Y82.711 E4.8690
G1 X48.037 Y82.369 E4.9405
G1 X47.929 Y82.239 E4.9658
G1 X47.687 Y81.889 E5.0295
G1 X47.668 Y81.857 E5.0350
G1 X84.999 Y81.857 E10.6222
G1 X85.057 Y81.817 E10.6329
G1 X85.107 Y81.780 E10.6421
G1 X85.918 Y81.139 E10.7969
G1 X85.966 Y81.099 E10.8062
G1 X86.655 Y80.482 E10.9446
G1 X86.700 Y80.439 E10.9539
G1 X87.462 Y79.665 E11.1165
G1 X87.517 Y79.604 E11.1288
G1 X87.544 Y79.571 E11.1352
G1 X47.128 Y79.571 E17.1843
G1 X47.129 Y77.286 E17.5264
G1 X89.277 Y77.286 E23.8347
G1 X89.664 Y76.677 E23.9427
G1 X89.725 Y76.565 E23.9618
G1 X89.886 Y76.223 E24.0184
G1 X89.956 Y76.015 E24.0512
G1 X90.093 Y75.404 E24.1450
G1 X90.117 Y75.176 E24.1792
G1 X90.115 Y75.000 E24.2056
G1 X47.129 Y75.000 E30.6393
G1 X47.130 Y72.714 E30.9814
G1 X89.291 Y72.714 E37.2916
G1 X88.565 Y71.662 E37.4829
G1 X88.525 Y71.607 E37.4931
G1 X88.017 Y70.968 E37.6153
G1 X87.975 Y70.919 E37.6250
G1 X87.532 Y70.429 E37.7238
G1 X47.131 Y70.429 E43.7707
G1 X47.131 Y69.961 E43.8407
G1 X47.142 Y69.812 E43.8631
G1 X47.230 Y69.228 E43.9515
G1 X47.292 Y69.001 E43.9867
G1 X47.568 Y68.319 E44.0968
G1 X47.667 Y68.143 E44.1270
G1 X84.990 Y68.143 E49.7131
G1 X84.614 Y67.869 E49.7827
G1 X84.559 Y67.831 E49.7926
G1 X83.595 Y67.221 E49.9633
G1 X83.540 Y67.189 E49.9730
G1 X82.750 Y66.757 E50.1076
G1 X82.692 Y66.728 E50.1174
G1 X81.624 Y66.232 E50.2936
G1 X81.562 Y66.205 E50.3037
G1 X80.676 Y65.864 E50.4459
