;FLAVOR:Marlin
;TIME:17964
;Filament used: 20.8201m
;Layer height: 0.2
;MINX:95.352
;MINY:95.351
;MINZ:0.3
;MAXX:194.648
;MAXY:194.648
;MAXZ:199.7
;Generated with Cura_SteamEngine 4.7.1
M140 S50
M105
M190 S50
M104 S205
M105
M109 S205
M82 ;absolute extrusion mode
G28
G1 Z15 F300
M107
;Prime the extruder
G92 E0
G1 F200 E3
G92 E0
G1 X10 Y10 F1500 ; move to prime
G1 Z0.2 F3000 ; get ready to prime
G92 E0 ; reset extrusion distance
G1 Y200 E15 F600 ; prime nozzle
G1 Y100 F5000 ; quick wipe

G92 E0
;Extruder 1 start code

G92 E0
G1 F2100 E-10
;LAYER_COUNT:999
;LAYER:0
M107
G1 F600 Z1.3
G0 F1800 X118.272 Y118.284 Z1.3
;TYPE:SKIRT
G1 F600 Z0.3
G1 F2100 E0
G1 F1500 X118.851 Y117.747 E0.0394
G1 X119.481 Y117.271 E0.07879
G1 X120.156 Y116.861 E0.11819
G1 X120.877 Y116.518 E0.15803
G1 X141.695 Y107.895 E1.28221
G1 X142.439 Y107.63 E1.32162
G1 X143 Y107.484 E1.35054
G1 X143.417 Y107.392 E1.37184
G1 X144.195 Y107.261 E1.4112
G1 X144.983 Y107.21 E1.4506
G1 X145.772 Y107.238 E1.48999
G1 X146.555 Y107.346 E1.52942
G1 X147.322 Y107.533 E1.56881
G1 X148.082 Y107.803 E1.60904
G1 X168.9 Y116.425 E2.73321
G1 X169.613 Y116.763 E2.77258
G1 X170.119 Y117.061 E2.80187
G1 X170.48 Y117.292 E2.82326
G1 X171.123 Y117.751 E2.86267
G1 X171.716 Y118.272 E2.90205
G1 X172.253 Y118.851 E2.94145
G1 X172.729 Y119.481 E2.98084
G1 X173.139 Y120.156 E3.02024
G1 X173.482 Y120.877 E3.06008
G1 X182.105 Y141.695 E4.18426
G1 X182.37 Y142.439 E4.22367
G1 X182.516 Y143 E4.25259
G1 X182.608 Y143.417 E4.27389
G1 X182.739 Y144.195 E4.31325
G1 X182.79 Y144.983 E4.35265
G1 X182.762 Y145.772 E4.39204
G1 X182.654 Y146.555 E4.43147
G1 X182.467 Y147.322 E4.47086
G1 X182.197 Y148.082 E4.5111
G1 X173.575 Y168.9 E5.63526
G1 X173.237 Y169.613 E5.67463
G1 X172.939 Y170.119 E5.70393
G1 X172.708 Y170.48 E5.72531
G1 X172.249 Y171.123 E5.76472
G1 X171.728 Y171.716 E5.8041
G1 X171.149 Y172.253 E5.8435
G1 X170.519 Y172.729 E5.8829
G1 X169.844 Y173.139 E5.9223
G1 X169.123 Y173.482 E5.96213
G1 X148.305 Y182.105 E7.08632
G1 X147.561 Y182.37 E7.12572
G1 X147.014 Y182.513 E7.15393
G1 X146.596 Y182.606 E7.17529
G1 X145.817 Y182.738 E7.21471
G1 X145.03 Y182.791 E7.25406
G1 X144.24 Y182.764 E7.2935
G1 X143.458 Y182.657 E7.33288
G1 X142.69 Y182.472 E7.37229
G1 X141.917 Y182.198 E7.4132
G1 X121.1 Y173.575 E8.53734
G1 X120.387 Y173.236 E8.57673
G1 X119.881 Y172.939 E8.606
G1 X119.52 Y172.708 E8.62738
G1 X118.877 Y172.249 E8.6668
G1 X118.284 Y171.728 E8.70618
G1 X117.747 Y171.149 E8.74558
G1 X117.271 Y170.519 E8.78497
G1 X116.861 Y169.844 E8.82437
G1 X116.518 Y169.123 E8.86421
G1 X107.895 Y148.305 E9.98839
G1 X107.63 Y147.561 E10.0278
G1 X107.483 Y146.997 E10.05687
G1 X107.391 Y146.579 E10.07823
G1 X107.261 Y145.8 E10.11763
G1 X107.21 Y145.012 E10.15702
G1 X107.239 Y144.223 E10.19641
G1 X107.347 Y143.44 E10.23585
G1 X107.534 Y142.673 E10.27523
G1 X107.803 Y141.917 E10.31527
G1 X116.425 Y121.1 E11.43939
G1 X116.763 Y120.387 E11.47876
G1 X117.061 Y119.881 E11.50805
G1 X117.292 Y119.52 E11.52943
G1 X117.751 Y118.877 E11.56885
G1 X118.272 Y118.284 E11.60823
G0 F1800 X118.587 Y118.534
G1 F1500 X119.154 Y118.015 E11.64658
G1 X119.772 Y117.557 E11.68496
G1 X120.434 Y117.166 E11.72331
G1 X121.03 Y116.887 E11.75614
G1 X141.848 Y108.264 E12.88033
G1 X142.573 Y108.007 E12.91871
G1 X143.086 Y107.875 E12.94513
G1 X143.503 Y107.783 E12.96644
G1 X144.261 Y107.656 E13.00478
G1 X145.029 Y107.609 E13.04317
G1 X145.798 Y107.642 E13.08157
G1 X146.558 Y107.755 E13.1199
G1 X147.304 Y107.946 E13.15832
G1 X147.929 Y108.172 E13.19148
G1 X168.747 Y116.794 E14.31565
G1 X169.441 Y117.125 E14.35401
G1 X169.904 Y117.398 E14.38082
G1 X170.265 Y117.629 E14.4022
G1 X170.89 Y118.077 E14.44057
G1 X171.466 Y118.587 E14.47895
G1 X171.985 Y119.154 E14.5173
G1 X172.443 Y119.772 E14.55568
G1 X172.834 Y120.434 E14.59403
G1 X173.113 Y121.03 E14.62687
G1 X181.736 Y141.848 E15.75105
G1 X181.993 Y142.573 E15.78943
G1 X182.125 Y143.086 E15.81585
G1 X182.217 Y143.503 E15.83716
G1 X182.344 Y144.261 E15.8755
G1 X182.391 Y145.029 E15.91389
G1 X182.358 Y145.798 E15.95229
G1 X182.245 Y146.558 E15.99062
G1 X182.054 Y147.304 E16.02904
G1 X181.828 Y147.929 E16.0622
G1 X173.206 Y168.747 E17.18637
G1 X172.875 Y169.441 E17.22473
G1 X172.602 Y169.904 E17.25154
G1 X172.371 Y170.265 E17.27293
G1 X171.923 Y170.89 E17.31129
G1 X171.413 Y171.466 E17.34967
G1 X170.846 Y171.985 E17.38802
G1 X170.228 Y172.443 E17.4264
G1 X169.566 Y172.834 E17.46476
G1 X168.97 Y173.113 E17.49759
G1 X148.152 Y181.736 E18.62177
G1 X147.427 Y181.993 E18.66015
G1 X146.927 Y182.122 E18.68591
G1 X146.509 Y182.215 E18.70727
G1 X145.751 Y182.343 E18.74563
G1 X144.983 Y182.392 E18.78402
G1 X144.215 Y182.36 E18.82237
G1 X143.453 Y182.249 E18.86079
G1 X142.708 Y182.059 E18.89914
G1 X142.07 Y181.829 E18.93298
G1 X121.253 Y173.206 E20.05712
G1 X120.559 Y172.875 E20.09548
G1 X120.096 Y172.602 E20.1223
G1 X119.735 Y172.371 E20.14368
G1 X119.11 Y171.923 E20.18204
G1 X118.534 Y171.413 E20.22042
G1 X118.015 Y170.846 E20.25877
G1 X117.557 Y170.228 E20.29715
G1 X117.166 Y169.566 E20.33551
G1 X116.887 Y168.97 E20.36834
G1 X108.264 Y148.152 E21.49252
G1 X108.007 Y147.427 E21.5309
G1 X107.874 Y146.911 E21.55749
G1 X107.782 Y146.493 E21.57884
G1 X107.656 Y145.734 E21.61722
G1 X107.609 Y144.966 E21.65561
G1 X107.643 Y144.198 E21.69396
G1 X107.755 Y143.437 E21.73234
G1 X107.947 Y142.692 E21.77072
G1 X108.172 Y142.07 E21.80372
G1 X116.794 Y121.253 E22.92784
G1 X117.125 Y120.559 E22.9662
G1 X117.398 Y120.096 E22.99302
G1 X117.629 Y119.735 E23.0144
G1 X118.077 Y119.11 E23.05276
G1 X118.587 Y118.534 E23.09115
G0 F1800 X118.901 Y118.786
G1 F1500 X119.456 Y118.285 E23.12845
G1 X120.062 Y117.845 E23.16581
G1 X120.711 Y117.473 E23.20313
G1 X121.183 Y117.257 E23.22903
G1 X142.001 Y108.634 E24.35321
G1 X142.707 Y108.385 E24.39056
G1 X143.589 Y108.173 E24.43582
G1 X144.327 Y108.051 E24.47314
G1 X145.074 Y108.009 E24.51047
G1 X145.821 Y108.047 E24.54778
G1 X146.56 Y108.164 E24.58511
G1 X147.282 Y108.359 E24.62242
G1 X147.775 Y108.542 E24.64866
G1 X168.593 Y117.164 E25.77282
G1 X169.268 Y117.486 E25.81014
G1 X170.049 Y117.966 E25.85587
G1 X170.657 Y118.402 E25.8932
G1 X171.214 Y118.901 E25.93051
G1 X171.715 Y119.456 E25.96781
G1 X172.155 Y120.062 E26.00517
G1 X172.527 Y120.711 E26.04249
G1 X172.743 Y121.183 E26.06839
G1 X181.366 Y142.001 E27.19257
G1 X181.615 Y142.707 E27.22992
G1 X181.827 Y143.589 E27.27518
G1 X181.949 Y144.327 E27.3125
G1 X181.991 Y145.074 E27.34982
G1 X181.953 Y145.821 E27.38714
G1 X181.836 Y146.56 E27.42447
G1 X181.641 Y147.282 E27.46178
G1 X181.458 Y147.775 E27.48802
G1 X172.836 Y168.593 E28.61218
G1 X172.514 Y169.268 E28.64949
G1 X172.034 Y170.049 E28.69523
G1 X171.598 Y170.657 E28.73256
G1 X171.099 Y171.214 E28.76987
G1 X170.544 Y171.715 E28.80717
G1 X169.938 Y172.155 E28.84453
G1 X169.289 Y172.527 E28.88185
G1 X168.817 Y172.743 E28.90775
G1 X147.999 Y181.366 E30.03193
G1 X147.293 Y181.615 E30.06928
G1 X146.422 Y181.825 E30.11398
G1 X145.684 Y181.948 E30.15131
G1 X144.938 Y181.992 E30.18859
G1 X144.19 Y181.956 E30.22595
G1 X143.451 Y181.84 E30.26327
G1 X142.729 Y181.646 E30.30057
G1 X142.223 Y181.459 E30.32748
G1 X121.406 Y172.836 E31.45162
G1 X120.731 Y172.513 E31.48896
G1 X119.951 Y172.034 E31.53462
G1 X119.343 Y171.598 E31.57195
G1 X118.786 Y171.099 E31.60926
G1 X118.285 Y170.544 E31.64656
G1 X117.845 Y169.938 E31.68392
G1 X117.473 Y169.289 E31.72124
G1 X117.257 Y168.817 E31.74714
G1 X108.634 Y147.999 E32.87133
G1 X108.385 Y147.293 E32.90868
G1 X108.173 Y146.407 E32.95413
G1 X108.051 Y145.669 E32.99144
G1 X108.009 Y144.922 E33.02877
G1 X108.047 Y144.175 E33.06609
G1 X108.164 Y143.436 E33.10342
G1 X108.36 Y142.714 E33.14074
G1 X108.542 Y142.223 E33.16686
G1 X117.164 Y121.406 E34.29099
G1 X117.487 Y120.732 E34.32827
G1 X117.966 Y119.951 E34.37398
G1 X118.402 Y119.343 E34.41131
G1 X118.901 Y118.786 E34.44862
G0 F1800 X119.214 Y119.038
G1 F1500 X119.757 Y118.556 E34.48484
G1 X120.35 Y118.136 E34.5211
G1 X120.985 Y117.784 E34.55732
G1 X121.336 Y117.626 E34.57652
G1 X142.154 Y109.003 E35.70071
G1 X142.84 Y108.763 E35.73697
G1 X143.675 Y108.564 E35.77979
G1 X144.392 Y108.447 E35.81604
G1 X145.117 Y108.409 E35.85226
G1 X145.842 Y108.451 E35.88849
G1 X146.559 Y108.573 E35.92477
G1 X147.257 Y108.772 E35.96098
G1 X147.622 Y108.911 E35.98047
G1 X168.44 Y117.533 E37.10464
G1 X169.095 Y117.848 E37.1409
G1 X169.833 Y118.303 E37.18415
G1 X170.423 Y118.727 E37.2204
G1 X170.962 Y119.214 E37.25664
G1 X171.444 Y119.757 E37.29286
G1 X171.864 Y120.35 E37.32912
G1 X172.216 Y120.985 E37.36534
G1 X172.374 Y121.336 E37.38454
G1 X180.997 Y142.154 E38.50873
G1 X181.237 Y142.84 E38.54499
G1 X181.436 Y143.675 E38.58781
G1 X181.553 Y144.392 E38.62406
G1 X181.591 Y145.117 E38.66028
G1 X181.549 Y145.842 E38.69651
G1 X181.427 Y146.559 E38.73279
G1 X181.228 Y147.257 E38.769
G1 X181.089 Y147.622 E38.78849
G1 X172.467 Y168.44 E39.91266
G1 X172.152 Y169.095 E39.94892
G1 X171.697 Y169.833 E39.99217
G1 X171.273 Y170.423 E40.02842
G1 X170.786 Y170.962 E40.06466
G1 X170.243 Y171.444 E40.10089
G1 X169.65 Y171.864 E40.13714
G1 X169.015 Y172.216 E40.17336
G1 X168.664 Y172.374 E40.19256
G1 X147.846 Y180.997 E41.31675
G1 X147.16 Y181.237 E41.35301
G1 X146.335 Y181.434 E41.39533
G1 X145.619 Y181.553 E41.43154
G1 X144.893 Y181.592 E41.46781
G1 X144.168 Y181.551 E41.50404
G1 X143.452 Y181.431 E41.54026
G1 X142.753 Y181.232 E41.57652
G1 X142.376 Y181.09 E41.59662
G1 X121.559 Y172.467 E42.72076
G1 X120.904 Y172.152 E42.75702
G1 X120.167 Y171.697 E42.80023
G1 X119.577 Y171.273 E42.83648
G1 X119.038 Y170.786 E42.87272
G1 X118.556 Y170.243 E42.90894
G1 X118.136 Y169.65 E42.94519
G1 X117.784 Y169.015 E42.98142
G1 X117.626 Y168.664 E43.00062
G1 X109.003 Y147.846 E44.12481
G1 X108.763 Y147.16 E44.16107
G1 X108.563 Y146.321 E44.2041
G1 X108.446 Y145.604 E44.24034
G1 X108.409 Y144.878 E44.27661
G1 X108.452 Y144.153 E44.31284
G1 X108.574 Y143.437 E44.34908
G1 X108.774 Y142.739 E44.3853
G1 X108.911 Y142.376 E44.40466
G1 X117.533 Y121.559 E45.52878
G1 X117.848 Y120.905 E45.565
G1 X118.303 Y120.167 E45.60825
G1 X118.727 Y119.577 E45.6445
G1 X119.214 Y119.038 E45.68074
G0 F1800 X119.527 Y119.292
G1 F1500 X120.057 Y118.829 E45.71585
G1 X120.637 Y118.429 E45.751
G1 X121.489 Y117.996 E45.79868
G1 X142.307 Y109.373 E46.92287
G1 X142.972 Y109.141 E46.95801
G1 X143.761 Y108.955 E46.99845
G1 X144.456 Y108.842 E47.03358
G1 X145.159 Y108.809 E47.06869
G1 X145.862 Y108.856 E47.10384
G1 X146.554 Y108.983 E47.13894
G1 X147.469 Y109.281 E47.18695
G1 X168.287 Y117.903 E48.31112
G1 X168.921 Y118.209 E48.34624
G1 X169.618 Y118.64 E48.38712
G1 X170.188 Y119.052 E48.42221
G1 X170.708 Y119.527 E48.45735
G1 X171.171 Y120.057 E48.49246
G1 X171.571 Y120.637 E48.52761
G1 X172.004 Y121.489 E48.57529
G1 X180.627 Y142.307 E49.69948
G1 X180.859 Y142.972 E49.73461
G1 X181.045 Y143.761 E49.77506
G1 X181.158 Y144.456 E49.81019
G1 X181.191 Y145.159 E49.8453
G1 X181.144 Y145.862 E49.88045
G1 X181.017 Y146.554 E49.91555
G1 X180.719 Y147.469 E49.96356
G1 X172.097 Y168.287 E51.08773
G1 X171.791 Y168.921 E51.12285
G1 X171.36 Y169.618 E51.16373
G1 X170.948 Y170.188 E51.19882
G1 X170.473 Y170.708 E51.23396
G1 X169.943 Y171.171 E51.26907
G1 X169.363 Y171.571 E51.30422
G1 X168.511 Y172.004 E51.3519
G1 X147.693 Y180.627 E52.47609
G1 X147.028 Y180.859 E52.51122
G1 X146.249 Y181.044 E52.55117
G1 X145.554 Y181.158 E52.58631
G1 X144.851 Y181.192 E52.62142
G1 X144.148 Y181.146 E52.65657
G1 X143.455 Y181.021 E52.6917
G1 X142.529 Y180.72 E52.74028
G1 X121.712 Y172.097 E53.86442
G1 X121.078 Y171.791 E53.89954
G1 X120.382 Y171.36 E53.94038
G1 X119.812 Y170.948 E53.97547
G1 X119.292 Y170.473 E54.01061
G1 X118.829 Y169.943 E54.04572
G1 X118.429 Y169.363 E54.08087
G1 X117.996 Y168.511 E54.12855
G1 X109.373 Y147.693 E55.25273
G1 X109.141 Y147.028 E55.28787
G1 X108.954 Y146.235 E55.32852
G1 X108.842 Y145.54 E55.36364
G1 X108.809 Y144.836 E55.3988
G1 X108.857 Y144.134 E55.43391
G1 X108.983 Y143.442 E55.469
G1 X109.281 Y142.53 E55.51687
G1 X117.903 Y121.713 E56.64099
G1 X118.209 Y121.078 E56.67615
G1 X118.64 Y120.382 E56.717
G1 X119.052 Y119.812 E56.75208
G1 X119.527 Y119.292 E56.78722
G0 F1800 X119.838 Y119.547
G1 F1500 X120.356 Y119.104 E56.82123
G1 X120.921 Y118.725 E56.85517
G1 X121.642 Y118.365 E56.89537
G1 X142.46 Y109.742 E58.01956
G1 X143.43 Y109.437 E58.07029
G1 X143.847 Y109.345 E58.09159
G1 X144.52 Y109.238 E58.12559
G1 X145.2 Y109.21 E58.15955
G1 X145.879 Y109.262 E58.19352
G1 X146.547 Y109.393 E58.22748
G1 X147.316 Y109.65 E58.26793
G1 X168.134 Y118.272 E59.3921
G1 X168.747 Y118.569 E59.42608
G1 X169.402 Y118.977 E59.46458
G1 X169.953 Y119.377 E59.49855
G1 X170.453 Y119.838 E59.53248
G1 X170.896 Y120.356 E59.56649
G1 X171.275 Y120.921 E59.60043
G1 X171.635 Y121.642 E59.64064
G1 X180.258 Y142.46 E60.76482
G1 X180.563 Y143.43 E60.81555
G1 X180.655 Y143.847 E60.83686
G1 X180.762 Y144.52 E60.87085
G1 X180.79 Y145.2 E60.90481
G1 X180.738 Y145.879 E60.93878
G1 X180.607 Y146.547 E60.97274
G1 X180.35 Y147.316 E61.01319
G1 X171.728 Y168.134 E62.13736
G1 X171.431 Y168.747 E62.17134
G1 X171.023 Y169.402 E62.20984
G1 X170.623 Y169.953 E62.24381
G1 X170.162 Y170.453 E62.27774
G1 X169.644 Y170.896 E62.31175
G1 X169.079 Y171.275 E62.34569
G1 X168.358 Y171.635 E62.3859
G1 X147.54 Y180.258 E63.51008
G1 X146.58 Y180.561 E63.56031
G1 X146.162 Y180.654 E63.58167
G1 X145.489 Y180.762 E63.61568
G1 X144.809 Y180.791 E63.64963
G1 X144.13 Y180.74 E63.6836
G1 X143.462 Y180.61 E63.71755
G1 X142.682 Y180.35 E63.75857
G1 X121.865 Y171.727 E64.88271
G1 X121.253 Y171.43 E64.91665
G1 X120.598 Y171.023 E64.95512
G1 X120.047 Y170.623 E64.98909
G1 X119.547 Y170.162 E65.02302
G1 X119.104 Y169.644 E65.05703
G1 X118.725 Y169.079 E65.09097
G1 X118.365 Y168.358 E65.13118
G1 X109.742 Y147.54 E66.25536
G1 X109.437 Y146.567 E66.30623
G1 X109.345 Y146.149 E66.32759
G1 X109.238 Y145.476 E66.36159
G1 X109.21 Y144.796 E66.39554
G1 X109.262 Y144.117 E66.42951
G1 X109.394 Y143.449 E66.46349
G1 X109.65 Y142.683 E66.50378
G1 X118.272 Y121.866 E67.6279
G1 X118.569 Y121.253 E67.66188
G1 X118.977 Y120.598 E67.70038
G1 X119.377 Y120.047 E67.73435
G1 X119.838 Y119.547 E67.76828
G0 F1800 X120.149 Y119.803
G1 F1500 X120.653 Y119.381 E67.80108
G1 X121.204 Y119.023 E67.83386
G1 X121.796 Y118.735 E67.8667
G1 X142.614 Y110.112 E68.99089
G1 X143.517 Y109.828 E69.03812
G1 X143.934 Y109.736 E69.05942
G1 X144.583 Y109.634 E69.0922
G1 X145.239 Y109.611 E69.12495
G1 X145.894 Y109.668 E69.15775
G1 X146.536 Y109.804 E69.19049
G1 X147.163 Y110.02 E69.22357
G1 X167.981 Y118.642 E70.34774
G1 X168.826 Y119.083 E70.39529
G1 X169.187 Y119.314 E70.41667
G1 X169.717 Y119.701 E70.44942
G1 X170.197 Y120.149 E70.48217
G1 X170.619 Y120.653 E70.51497
G1 X170.977 Y121.204 E70.54775
G1 X171.265 Y121.796 E70.58059
G1 X179.888 Y142.614 E71.70478
G1 X180.172 Y143.517 E71.75201
G1 X180.264 Y143.934 E71.77331
G1 X180.366 Y144.583 E71.80609
G1 X180.389 Y145.239 E71.83884
G1 X180.332 Y145.894 E71.87164
G1 X180.196 Y146.536 E71.90438
G1 X179.98 Y147.163 E71.93746
G1 X171.358 Y167.981 E73.06163
G1 X170.917 Y168.826 E73.10918
G1 X170.686 Y169.187 E73.13056
G1 X170.299 Y169.717 E73.16331
G1 X169.851 Y170.197 E73.19606
G1 X169.347 Y170.619 E73.22886
G1 X168.796 Y170.977 E73.26164
G1 X168.204 Y171.265 E73.29448
G1 X147.386 Y179.888 E74.41867
G1 X146.493 Y180.17 E74.46539
G1 X146.075 Y180.263 E74.48675
G1 X145.426 Y180.367 E74.51955
G1 X144.769 Y180.39 E74.55234
G1 X144.115 Y180.334 E74.58509
G1 X143.472 Y180.199 E74.61787
G1 X142.835 Y179.981 E74.65146
G1 X122.018 Y171.358 E75.7756
G1 X121.174 Y170.917 E75.82311
G1 X120.813 Y170.686 E75.84449
G1 X120.283 Y170.299 E75.87723
G1 X119.803 Y169.851 E75.90999
G1 X119.381 Y169.347 E75.94278
G1 X119.023 Y168.796 E75.97557
G1 X118.735 Y168.204 E76.00841
G1 X110.112 Y147.386 E77.1326
G1 X109.827 Y146.481 E77.17993
G1 X109.735 Y146.063 E77.20129
G1 X109.633 Y145.414 E77.23406
G1 X109.611 Y144.757 E77.26686
G1 X109.668 Y144.103 E77.29961
G1 X109.805 Y143.46 E77.33241
G1 X110.02 Y142.836 E77.36534
G1 X118.642 Y122.019 E78.48946
G1 X119.083 Y121.174 E78.53701
G1 X119.314 Y120.813 E78.55839
G1 X119.701 Y120.283 E78.59114
